!!!!SEGMENT: pl-cz--iii-753--001-009_zebrowski-marcin-jozef--vesperae-in-d-laetatus-sum.krn
!!!cenid: 17xx:2380
!!!COM: Żebrowski, Marcin Józef
!!!COM-rismID:
!!!CDT: 1702-1770/06/29
!!!CNT: Polish
!!!OPR: Vesperae in D
!!!OTL: Laetatus sum
!!!OMV: 009
!!!PDT:
!!!AGN:
!!!SMS-siglum: PL-CZ
!!!SMS-shelfmark: III-753
!!!SMS-shelfwork: 001-009 M
!!!SMS-variant:
!!!SMS-altvar:
!!!NIFC-rismSourceID: 300033505
!!!NIFC-islandoraID: pl-cz:25492
!!!URL-pdf-islandora: https://repozytorium.nifc.pl/islandora/object/pl-cz%3A25492/datastream/PDF/view
!!!URL-scan: https://polish.musicsources.pl/pl/lokalizacje/galeria/rekopisy/1484 @EN{Scan on Polish Music Herritage in Open Access Website} @PL{Skany w portalu Dziedzictwo Muzyki Polskiej w otwartym dostępie}
!!!ONB-nifc: UWAGA: części Nieszporów: 1. Dixit Dominus, 2. Confitebor, 3. Beatus vir, 4. Laudate pueri, 5. Laudate Dominum, 6. Credidi, 7. In convertendo, 8. Domine probasti me, 9. Laetatus sum, 10. Nisi Dominus, 11. Lauda Jerusalem, 12. Magnificat, 13. Quia respexit, 14. Deposuit potentes, 15. Gloria patri
!!!AIN: 1 alto 1 bass 2 clrno 1 fagot 1 organ 1 soprn 1 tenor 2 violn
!!!key: F
**kern	**fba	**dynam	**kern	**dynam	**kern	**dynam	**kern	**dynam	**kern	**kern	**kern	**text	**kern	**text	**kern	**kern
*group4	*	*	*group4	*	*group3	*	*group3	*	*group2	*group2	*group2	*	*group2	*	*group1	*group1
*part10	*	*	*part9	*	*part8	*part8	*part7	*part7	*part6	*part5	*part4	*part4	*part3	*part3	*part2	*part1
*staff10	*	*	*staff9	*	*staff8	*	*staff7	*	*staff6	*staff5	*staff4	*staff4	*staff3	*staff3	*staff2	*staff1
*I"Organo.	*	*	*I"Baſsone.	*	*I"Violino Secondo.	*	*I"Violino Primo.	*	*I"Baſso.	*I"Tenore.	*I"Alto.	*	*I"Canto.	*	*I"Clarino Secondo ex D.	*I"Clarino Primo ex D
*I'org	*	*	*I'fag	*	*I'vl 2	*	*I'vl 1	*	*I'B	*I'T	*I'A	*	*I'S	*	*I'clno 2	*I'clno 1
*Iorgan	*	*	*Ifagot	*	*Ivioln	*	*Ivioln	*	*Ibass	*Itenor	*Ialto	*	*Isoprn	*	*Iclrno	*Iclrno
*ICklav	*	*	*ICww	*	*ICstr	*	*ICstr	*	*ICvox	*ICvox	*ICvox	*	*ICvox	*	*ICbras	*ICbras
*IGcont	*	*	*IGcont	*	*	*	*	*	*IGcoro	*IGcoro	*IGcoro	*	*IGcoro	*	*	*
*clefF4	*	*	*clefF4	*	*clefG2	*	*clefG2	*	*clefF4	*clefC4	*clefC3	*	*clefC1	*	*clefG2	*clefG2
*	*	*	*	*	*	*	*	*	*	*	*	*	*	*	*ITrd-1c-2	*ITrd-1c-2
*k[b-]	*	*	*k[b-]	*	*k[b-]	*	*k[b-]	*	*k[b-]	*k[b-]	*k[b-]	*	*k[b-]	*	*k[b-]	*k[b-]
*F:	*	*	*F:	*	*F:	*	*F:	*	*F:	*F:	*F:	*	*F:	*	*F:	*F:
*M2/4	*	*	*M2/4	*	*M2/4	*	*M2/4	*	*M2/4	*M2/4	*M2/4	*	*M2/4	*	*M2/4	*M2/4
!LO:TX:b:i:t=allegro.	!	!	!	!	!	!	!	!	!	!	!	!	!	!	!	!
!LO:TX:a:i:t=Solo.	!	!	!	!	!LO:TX:b:t=Allo.	!	!	!	!LO:TX:a:i:t=Laetatus sum tacet	!LO:TX:a:i:t=Laetatus Tacet.	!LO:TX:a:i:t=Allo.	!	!LO:TX:a:i:t=Allo.	!	!	!
8r	.	.	8ryy	.	8a/	.	8ff\	.	8ryy	8ryy	8ryy	.	8ryy	.	8ryy	8ryy
=1	=1	=1	=1	=1	=1	=1	=1	=1	=1	=1	=1	=1	=1	=1	=1	=1
!LO:TX:t=P:problem:mixed beam	!	!	!	!	!	!	!	!	!	!	!LO:TX:a:i:t=10.	!	!LO:TX:a:i:t=10.	!	!	!
!	!	!	!	!	!	!	!	!	!	!	!	!	!LO:TX:a:i:t=Solo.	!	!	!
8r	.	.	8r	.	4ff|\	.	4aa|\	.	2ryy	2ryy	0r	.	0r	.	2ryy	2ryy
!	!	!	!LO:TX:t=P:problem:mixed beam	!	!	!	!	!	!	!	!	!	!	!	!	!
8F\L	.	.	8F\L	.	.	.	.	.	.	.	.	.	.	.	.	.
8B-\	6 5	.	8B-\	.	4gg|\	.	4bb-|\	.	.	.	.	.	.	.	.	.
8BB-/J	.	.	8BB-/J	.	.	.	.	.	.	.	.	.	.	.	.	.
=2	=2	=2	=2	=2	=2	=2	=2	=2	=2	=2	=2	=2	=2	=2	=2	=2
8F\L	.	.	8F\L	.	4.aa\	.	4.ccc\	.	2ryy	2ryy	.	.	.	.	2ryy	2ryy
8F\	.	.	8F\	.	.	.	.	.	.	.	.	.	.	.	.	.
8F\	.	.	8F\	.	.	.	.	.	.	.	.	.	.	.	.	.
8F\J	6 4	.	8F\J	.	8bb-\	.	8bb-\	.	.	.	.	.	.	.	.	.
=3	=3	=3	=3	=3	=3	=3	=3	=3	=3	=3	=3	=3	=3	=3	=3	=3
.	.	.	.	.	8qqbb-/	.	8qqddd/	.	.	.	.	.	.	.	.	.
8F\L	5 3	.	8F\L	.	4.aa\	.	4.ccc\	.	2ryy	2ryy	.	.	.	.	2ryy	2ryy
8F\	.	.	8F\	.	.	.	.	.	.	.	.	.	.	.	.	.
8F\	.	.	8F\	.	.	.	.	.	.	.	.	.	.	.	.	.
8F\J	6 4	.	8F\J	.	8bb-\	.	8ddd\	.	.	.	.	.	.	.	.	.
=4	=4	=4	=4	=4	=4	=4	=4	=4	=4	=4	=4	=4	=4	=4	=4	=4
8F\L	5 3	.	8F\L	.	8aa\L	.	8ccc\L	.	2ryy	2ryy	.	.	.	.	2ryy	2ryy
8F\	.	.	8F\	.	16gg\L	.	16bb-\L	.	.	.	.	.	.	.	.	.
.	.	.	.	.	16ff\JJ	.	16aa\JJ	.	.	.	.	.	.	.	.	.
8E\	6 5	.	8E\	.	8gg\L	.	8bb-\L	.	.	.	.	.	.	.	.	.
8C\J	.	.	8C\J	.	8gg\J	.	8bb-\J	.	.	.	.	.	.	.	.	.
=5	=5	=5	=5	=5	=5	=5	=5	=5	=5	=5	=5	=5	=5	=5	=5	=5
*	*	*	*^	*	*	*	*	*	*	*	*	*	*	*	*	*
8F\L	4 9	.	8F\L	4FF/	.	8gg\L	.	8bb-\L	.	2ryy	2ryy	0r	.	0r	.	2ryy	2ryy
8F\	3 8	.	8F\	.	.	8ff\J	.	8aa\J	.	.	.	.	.	.	.	.	.
!	!	!	!	!	!	!	!LO:DY:t=pia	!	!LO:DY:rj	!	!	!	!	!	!	!	!
8F\	6 4	.	8F\	4ryy	.	4b-/	p	4dd\	p	.	.	.	.	.	.	.	.
8F\J	.	.	8F\J	.	.	.	.	.	.	.	.	.	.	.	.	.	.
=6	=6	=6	=6	=6	=6	=6	=6	=6	=6	=6	=6	=6	=6	=6	=6	=6	=6
!LO:TX:t=P:problem:mixed beam	!	!	!	!	!	!	!	!	!	!	!	!	!	!	!	!	!
8FF/L	5 3	.	8F\L	4FF/	.	8a/L	.	8cc\L	.	2ryy	2ryy	.	.	.	.	2ryy	2ryy
8F\	.	.	8F\	.	.	16g/L	.	16b-\L	.	.	.	.	.	.	.	.	.
.	.	.	.	.	.	16f/JJ	.	16a\JJ	.	.	.	.	.	.	.	.	.
8E\	6 5	.	8E\	4ryy	.	8g/L	.	8b-\L	.	.	.	.	.	.	.	.	.
8C\J	.	.	8C\J	.	.	8g/J	.	8b-\J	.	.	.	.	.	.	.	.	.
*	*	*	*v	*v	*	*	*	*	*	*	*	*	*	*	*	*	*
=7	=7	=7	=7	=7	=7	=7	=7	=7	=7	=7	=7	=7	=7	=7	=7	=7
!	!	!	!	!	!	!LO:DY:rj:t=for	!	!LO:DY:rj	!	!	!	!	!	!	!	!
8F\L	.	.	8F\L	.	(32a\KLL	f	(32a\KLL	f	2ryy	2ryy	.	.	.	.	2ryy	2ryy
.	.	.	.	.	16.aa\JJ)	.	16.aa\JJ)	.	.	.	.	.	.	.	.	.
8A\J	.	.	8A\J	.	(32ee\KLL	.	(32ee\KLL	.	.	.	.	.	.	.	.	.
.	.	.	.	.	16.ff\JJ)	.	16.ff\JJ)	.	.	.	.	.	.	.	.	.
8BB-/L	.	.	8BB-/L	.	(32cc#X\KLL	.	(32cc#X\KLL	.	.	.	.	.	.	.	.	.
.	.	.	.	.	16.dd\JJ)	.	16.dd\JJ)	.	.	.	.	.	.	.	.	.
8D/J	.	.	8D/J	.	(32a\KLL	.	(32a\KLL	.	.	.	.	.	.	.	.	.
.	.	.	.	.	16.b-\JJ)	.	16.b-\JJ)	.	.	.	.	.	.	.	.	.
!LO:LB:g=original	!	!	!	!	!	!	!	!	!	!	!	!	!	!	!	!
=8	=8	=8	=8	=8	=8	=8	=8	=8	=8	=8	=8	=8	=8	=8	=8	=8
8C/L	6 4	.	8C/L	.	8.c/L	.	8.c/L	.	2ryy	2ryy	.	.	.	.	2ryy	2ryy
8C/	.	.	8C/	.	.	.	.	.	.	.	.	.	.	.	.	.
.	.	.	.	.	16f/Jk	.	16f/Jk	.	.	.	.	.	.	.	.	.
.	.	.	.	.	.	.	8qqf/	.	.	.	.	.	.	.	.	.
8C/	5 4	.	8C/	.	4gT/	.	4gT/	.	.	.	.	.	.	.	.	.
8C/J	3	.	8C/J	.	.	.	.	.	.	.	.	.	.	.	.	.
=9	=9	=9	=9	=9	=9	=9	=9	=9	=9	=9	=9	=9	=9	=9	=9	=9
8F\L	.	.	8F\L	.	(32a\KLL	.	(32a\KLL	.	2ryy	2ryy	1r	.	1r	.	2ryy	2ryy
.	.	.	.	.	16.aa\JJ)	.	16.aa\JJ)	.	.	.	.	.	.	.	.	.
8A\J	.	.	8A\J	.	(32ee\KLL	.	(32ee\KLL	.	.	.	.	.	.	.	.	.
.	.	.	.	.	16.ff\JJ)	.	16.ff\JJ)	.	.	.	.	.	.	.	.	.
!	!	!	!	!	!LO:LB:g=original	!	!LO:LB:g=original	!	!	!	!	!	!	!	!	!
8BB-/L	.	.	8BB-/L	.	(32cc#X\KLL	.	(32cc#X\KLL	.	.	.	.	.	.	.	.	.
.	.	.	.	.	16.dd\JJ)	.	16.dd\JJ)	.	.	.	.	.	.	.	.	.
8D/J	.	.	8D/J	.	(32a\KLL	.	(32a\KLL	.	.	.	.	.	.	.	.	.
.	.	.	.	.	16.b-\JJ)	.	16.b-\JJ)	.	.	.	.	.	.	.	.	.
=10	=10	=10	=10	=10	=10	=10	=10	=10	=10	=10	=10	=10	=10	=10	=10	=10
8C/L	6 4	.	8C/L	.	8c/	.	8.c/L	.	2ryy	2ryy	.	.	.	.	2ryy	2ryy
8C/	.	.	8C/	.	4f/	.	.	.	.	.	.	.	.	.	.	.
.	.	.	.	.	.	.	16f/Jk	.	.	.	.	.	.	.	.	.
.	.	.	.	.	.	.	8qqf/	.	.	.	.	.	.	.	.	.
8CC/	5 4	.	8CC/	.	.	.	4gT/	.	.	.	.	.	.	.	.	.
8CC/J	3	.	8CC/J	.	8e/	.	.	.	.	.	.	.	.	.	.	.
=11	=11	=11	=11	=11	=11	=11	=11	=11	=11	=11	=11	=11	=11	=11	=11	=11
!LO:TX:t=P:problem:mixed beam	!	!	!LO:TX:t=P:problem:mixed beam	!	!	!	!LO:TX:t=P:problem:mixed beam	!	!	!	!LO:TX:a:i:t=Solo.	!	!	!	!	!
8FF/L	.	.	8FF/L	.	8f/L	.	8f|/L	.	2ryy	2ryy	4r	.	4r	.	2ryy	2ryy
8F\	.	.	8F\	.	8c/	.	8c|/	.	.	.	.	.	.	.	.	.
8FF/J	.	.	8FF/J	.	8A/	.	8A|/	.	.	.	8r	.	8r	.	.	.
8r	.	.	8r	.	8a/J	p	8ff|\J	p	.	.	8A/	Lae-	8f/	Lae-	.	.
=12	=12	=12	=12	=12	=12	=12	=12	=12	=12	=12	=12	=12	=12	=12	=12	=12
8r	.	.	8r	.	4ff\	.	4aa|\	.	2ryy	2ryy	4f\	-ta-	4a\	-ta-	2ryy	2ryy
!LO:TX:t=P:problem:mixed beam	!	!LO:DY:t=pia&colon;	!LO:TX:t=P:problem:mixed beam	!LO:DY:t=pia	!	!	!	!	!	!	!	!	!	!	!	!
8F\L	.	p	8F\L	p	.	.	.	.	.	.	.	.	.	.	.	.
8B-\	6 5	.	8B-\	.	4gg\	.	4bb-|\	.	.	.	4g\	-tus	4b-\	-tus	.	.
8BB-/J	.	.	8BB-/J	.	.	.	.	.	.	.	.	.	.	.	.	.
!	!	!	!LO:LB:g=original	!	!	!	!	!	!	!	!	!	!	!	!	!
=13	=13	=13	=13	=13	=13	=13	=13	=13	=13	=13	=13	=13	=13	=13	=13	=13
8F\L	.	.	8F\L	.	4.aa\	.	4.ccc\	.	2ryy	2ryy	4.a\	sum	4.cc\	sum	2ryy	2ryy
8F\	.	.	8F\	.	.	.	.	.	.	.	.	.	.	.	.	.
8F\	.	.	8F\	.	.	.	.	.	.	.	.	.	.	.	.	.
8F\J	6 4	.	8F\J	.	8bb-\	.	8ddd\	.	.	.	8b-\	in	8dd\	in	.	.
=14	=14	=14	=14	=14	=14	=14	=14	=14	=14	=14	=14	=14	=14	=14	=14	=14
.	.	.	.	.	8qqbb-/	.	8qqddd/	.	.	.	.	.	8qqdd/	.	.	.
8F\L	5 3	.	8F\L	.	4.aa\	.	4.ccc\	.	2ryy	2ryy	4.a\	his	4.cc\	his	2ryy	2ryy
8F\	.	.	8F\	.	.	.	.	.	.	.	.	.	.	.	.	.
8F\	.	.	8F\	.	.	.	.	.	.	.	.	.	.	.	.	.
8F\J	6 4	.	8F\J	.	8bb-\	.	8ddd\	.	.	.	8b-\	quae	8dd\	quae	.	.
=15	=15	=15	=15	=15	=15	=15	=15	=15	=15	=15	=15	=15	=15	=15	=15	=15
8F\L	5 3	.	8F\L	.	8aa\L	.	8ccc\L	.	2ryy	2ryy	8a\L	di-	8cc\L	di-	2ryy	2ryy
8F\	.	.	8F\	.	16gg\L	.	16bb-\L	.	.	.	16g\L	.	16b-\L	.	.	.
.	.	.	.	.	16ff\JJ	.	16aa\JJ	.	.	.	16f\JJ	.	16a\JJ	.	.	.
8E\	6 5	.	8E\	.	8gg\L	.	8bb-\L	.	.	.	8g\	-cta	8b-\	-cta	.	.
8C\J	.	.	8C\J	.	8gg\J	.	8bb-\J	.	.	.	8g\	sunt	8b-\	sunt	.	.
=16	=16	=16	=16	=16	=16	=16	=16	=16	=16	=16	=16	=16	=16	=16	=16	=16
!LO:TX:t=P:problem:mixed beam	!	!	!LO:TX:t=P:problem:mixed beam	!	!	!	!	!	!	!	!	!	!	!	!	!
8FF/L	4 9	.	8FF/L	.	8gg\L	.	8bb-\L	.	2ryy	2ryy	8g\	mi-	8b-\	mi-	2ryy	2ryy
8F\	3 8	.	8F\	.	8ff\J	.	8aa\J	.	.	.	8f\	-hi	8a\	-hi	.	.
!	!	!	!	!	!	!	!	!	!	!	!	!	!LO:LB:g=original	!	!	!
8F\	6 4	.	8F\	.	4bb-\	.	4ddd\	.	.	.	4b-\	in	4dd\	in	.	.
8F\J	.	.	8F\J	.	.	.	.	.	.	.	.	.	.	.	.	.
!LO:LB:g=original	!	!	!	!	!	!	!	!	!	!	!	!	!	!	!	!
=17	=17	=17	=17	=17	=17	=17	=17	=17	=17	=17	=17	=17	=17	=17	=17	=17
8F\L	5 3	.	8F\L	.	8aa\L	.	8ccc\L	.	2ryy	2ryy	8a\	do-	8cc\	do-	2ryy	2ryy
8F\	.	.	8F\	.	16gg\L	.	16bb-\L	.	.	.	16g\LL	-mum	(16b-\LL	-mum	.	.
.	.	.	.	.	16ff\JJ	.	16aa\JJ	.	.	.	16f\JJ	.	16a\JJ)	.	.	.
8E\	6 5	.	8E\	.	8gg\L	.	8bb-\L	.	.	.	16g\	Do-	16b-\	Do-	.	.
.	.	.	.	.	.	.	.	.	.	.	16g\	-mi-	16b-\	-mi-	.	.
8C\J	.	.	8C\J	.	8gg\J	.	8bb-\J	.	.	.	8g\	-ni	8b-\	-ni	.	.
=18	=18	=18	=18	=18	=18	=18	=18	=18	=18	=18	=18	=18	=18	=18	=18	=18
!LO:TX:t=P:problem:mixed beam	!	!	!LO:TX:t=P:problem:mixed beam	!	!	!	!	!	!	!	!	!	!	!	!	!
8FF/L	4 9	.	8FF/L	.	8gg\L	.	8bb-\L	.	2ryy	2ryy	16g\	i-	16b-\	i-	2ryy	2ryy
.	.	.	.	.	.	.	.	.	.	.	16f\	-bi-	16a\	-bi-	.	.
!	!	!	!	!	!	!	!	!	!	!	!LO:LB:g=original	!	!	!	!	!
8F\J	3 8	.	8F\J	.	8ff\J	.	8aa\J	.	.	.	8f\	-mus.	8a\	-mus.	.	.
16F|\LL	.	.	16F|\LL	.	4f/	.	4a/	.	.	.	4r	.	4r	.	.	.
16E|\	.	.	16E|\	.	.	.	.	.	.	.	.	.	.	.	.	.
16D|\	.	.	16D|\	.	.	.	.	.	.	.	.	.	.	.	.	.
16C|\JJ	.	.	16C|\JJ	.	.	.	.	.	.	.	.	.	.	.	.	.
=19	=19	=19	=19	=19	=19	=19	=19	=19	=19	=19	=19	=19	=19	=19	=19	=19
!	!	!	!	!	!	!	!LO:TX:t=P:problem:mixed beam	!	!	!	!	!	!	!	!	!
8BBn/L	6	.	8BBn/L	.	8r	.	16dd|\LL	.	2ryy	2ryy	4r	.	4dd\	stan-	2ryy	2ryy
.	.	.	.	.	.	.	(<16g'/	.	.	.	.	.	.	.	.	.
8BB/	.	.	8BB/	.	8d/L	.	16g'/	.	.	.	.	.	.	.	.	.
.	.	.	.	.	.	.	16g'/JJ	.	.	.	.	.	.	.	.	.
8BB/	5	.	8BB/	.	8f/	.	16g'/LL	.	.	.	4d\	-in	4g/	-tes	.	.
.	.	.	.	.	.	.	16g'/	.	.	.	.	.	.	.	.	.
8BB/J	.	.	8BB/J	.	8d/J	.	16g'/	.	.	.	.	.	.	.	.	.
.	.	.	.	.	.	.	16g'/JJ)	.	.	.	.	.	.	.	.	.
!	!	!	!	!	!	!	!LO:LB:g=original	!	!	!	!	!	!	!	!	!
=20	=20	=20	=20	=20	=20	=20	=20	=20	=20	=20	=20	=20	=20	=20	=20	=20
!	!	!	!	!	!	!	!LO:TX:t=P:problem:mixed beam	!	!	!	!	!	!	!	!	!
8C/L	.	.	8C/L	.	8r	.	16ee|\LL	.	2ryy	2ryy	8.e\	at-	4g/	e-	2ryy	2ryy
.	.	.	.	.	.	.	(16g'/	.	.	.	.	.	.	.	.	.
8C/	.	.	8C/	.	8e/L	.	16g'/	.	.	.	.	.	.	.	.	.
.	.	.	.	.	.	.	16g'/JJ	.	.	.	16e\	-ri-	.	.	.	.
8C/	.	.	8C/	.	8g/	.	16g'/LL	.	.	.	4e\	-js	4g/	-rant	.	.
.	.	.	.	.	.	.	16g'/	.	.	.	.	.	.	.	.	.
8C/J	.	.	8C/J	.	8e/J	.	16g'/	.	.	.	.	.	.	.	.	.
.	.	.	.	.	.	.	16g'/JJ)	.	.	.	.	.	.	.	.	.
!	!	!	!	!	!LO:LB:g=original	!	!	!	!	!	!	!	!	!	!	!
=21	=21	=21	=21	=21	=21	=21	=21	=21	=21	=21	=21	=21	=21	=21	=21	=21
!	!	!	!	!	!	!	!LO:TX:t=P:problem:mixed beam	!	!	!	!	!	!	!	!	!
8BBn/L	6	.	8BBn/L	.	8r	.	16dd|\LL	.	2ryy	2ryy	8r	.	4dd\	pe-	2ryy	2ryy
.	.	.	.	.	.	.	(16g'/	.	.	.	.	.	.	.	.	.
8BB/	.	.	8BB/	.	8d/L	.	16g'/	.	.	.	8d\	tu-	.	.	.	.
.	.	.	.	.	.	.	16g'/JJ	.	.	.	.	.	.	.	.	.
8BB/	5	.	8BB/	.	8f/	.	16g'/LL	.	.	.	8d\	-is	4g/	-des	.	.
.	.	.	.	.	.	.	16g'/	.	.	.	.	.	.	.	.	.
8BB/J	.	.	8BB/J	.	8d/J	.	16g'/	.	.	.	8d\	Je-	.	.	.	.
.	.	.	.	.	.	.	16g'/JJ)	.	.	.	.	.	.	.	.	.
=22	=22	=22	=22	=22	=22	=22	=22	=22	=22	=22	=22	=22	=22	=22	=22	=22
!	!	!	!	!	!	!	!LO:TX:t=P:problem:mixed beam	!	!	!	!	!	!	!	!	!
8C/L	.	.	8C/L	.	8r	.	16ee|\LL	.	2ryy	2ryy	8.e\	-ru-	4g/	nos-	2ryy	2ryy
.	.	.	.	.	.	.	(16g'/	.	.	.	.	.	.	.	.	.
8C/	.	.	8C/	.	8e/L	.	16g'/	.	.	.	.	.	.	.	.	.
.	.	.	.	.	.	.	16g'/JJ	.	.	.	16e\	-sa-	.	.	.	.
8C/	.	.	8C/	.	8e/	.	16g'/LL	.	.	.	8e\	-le(m)	4g/	-tri	.	.
.	.	.	.	.	.	.	16g'/	.	.	.	.	.	.	.	.	.
8D/J	.	.	8D/J	.	8f/J	.	16g'/	.	.	.	8f\	Je-	.	.	.	.
.	.	.	.	.	.	.	16g'/JJ)	.	.	.	.	.	.	.	.	.
=23	=23	=23	=23	=23	=23	=23	=23	=23	=23	=23	=23	=23	=23	=23	=23	=23
8E\L	6	.	8E\L	.	4g/	.	4cc/ 4e/ 4G/	.	2ryy	2ryy	8.g\	-ru-	16r	.	2ryy	2ryy
.	.	.	.	.	.	.	.	.	.	.	.	.	16cc\	cu-	.	.
8E\	.	.	8E\	.	.	.	.	.	.	.	.	.	16cc\	-jus	.	.
.	.	.	.	.	.	.	.	.	.	.	16c/	-sa-	16cc\	p[ar]-	.	.
!	!	!	!	!	!	!	!	!	!	!	!	!	!LO:LB:g=original	!	!	!
8E\	.	.	8E\	.	4r	.	4r	.	.	.	8c/	-lem	16cc\	-ti-	.	.
.	.	.	.	.	.	.	.	.	.	.	.	.	16cc\	-ci-	.	.
8E\J	.	.	8E\J	.	.	.	.	.	.	.	8c/	quae	16cc\	-pa-	.	.
.	.	.	.	.	.	.	.	.	.	.	.	.	16cc\	-ti-	.	.
=24	=24	=24	=24	=24	=24	=24	=24	=24	=24	=24	=24	=24	=24	=24	=24	=24
!	!	!	!	!	!LO:TX:a:i:t=2.	!	!LO:TX:a:i:t=2.	!	!	!	!	!	!	!	!	!
8E\L	6	.	8E\L	.	1r	.	1r	.	2ryy	2ryy	8c/	ae-	8cc\	-o	2ryy	2ryy
8E\	.	.	8E\	.	.	.	.	.	.	.	16e\	-di-	16cc\	e-	.	.
.	.	.	.	.	.	.	.	.	.	.	16e\	-fi-	16cc\	-jus	.	.
8E\	5	.	8E\	.	.	.	.	.	.	.	8g\	-ca-	8cc\	in	.	.
!LO:SIC:v:t=custos F	!	!	!	!	!	!	!	!	!	!	!	!	!	!	!	!
8E\J	.	.	8E\J	.	.	.	.	.	.	.	16b-\	-tur	8gg\	id-	.	.
.	.	.	.	.	.	.	.	.	.	.	16b-\	ut	.	.	.	.
=25	=25	=25	=25	=25	=25	=25	=25	=25	=25	=25	=25	=25	=25	=25	=25	=25
!LO:TX:t=P:problem:mixed beam	!	!	!LO:TX:t=P:problem:mixed beam	!	!	!	!	!	!	!	!	!	!	!	!	!
8F\L	9	.	8F\L	.	.	.	.	.	2ryy	2ryy	8.a\	ci-	4gg\	-i-	2ryy	2ryy
8FF/J	.	.	8FF/J	.	.	.	.	.	.	.	.	.	.	.	.	.
.	.	.	.	.	.	.	.	.	.	.	16a\	-vi-	.	.	.	.
!	!	!	!	!	!	!	!	!	!	!	!	!	!LO:TX:b:i:t=Volti Subito	!	!	!
16F\LL	8	.	16F\LL	.	.	.	.	.	.	.	4a\	-tas	4ff\	-psum	.	.
16G\	.	.	16G\	.	.	.	.	.	.	.	.	.	.	.	.	.
16A\	.	.	16A\	.	.	.	.	.	.	.	.	.	.	.	.	.
16G\JJ	.	.	16G\JJ	.	.	.	.	.	.	.	.	.	.	.	.	.
!	!	!	!LO:LB:g=original	!	!	!	!	!	!	!	!LO:LB:g=original	!	!LO:PB:g=original	!	!	!
=26	=26	=26	=26	=26	=26	=26	=26	=26	=26	=26	=26	=26	=26	=26	=26	=26
8F\	.	.	8F\	.	8ff\	.	8aa\	.	2ryy	2ryy	8a\	il-	8r	.	2ryy	2ryy
8r	.	.	8r	.	8r	.	8r	.	.	.	8a\	-luc	16ff\	tes-	.	.
.	.	.	.	.	.	.	.	.	.	.	.	.	16ff\	-ti-	.	.
8c\	.	.	8c\	.	8ee\	.	8gg\	.	.	.	8g\	e-	16ee\	-mo-	.	.
.	.	.	.	.	.	.	.	.	.	.	.	.	16ee\	-ni-	.	.
8r	.	.	8r	.	8r	.	8r	.	.	.	8g\	-nim	8ee\	-um	.	.
=27	=27	=27	=27	=27	=27	=27	=27	=27	=27	=27	=27	=27	=27	=27	=27	=27
8G\	7 n	.	8G\	.	8dd\	.	8ff\	.	2ryy	2ryy	8f\	as-	16dd\	Is-	2ryy	2ryy
.	.	.	.	.	.	.	.	.	.	.	.	.	16dd\	-ra-	.	.
8r	.	.	8r	.	8r	.	8r	.	.	.	8f\	-cen-	16dd\	-el	.	.
.	.	.	.	.	.	.	.	.	.	.	.	.	16dd\	ad	.	.
8A\	.	.	8A\	.	8cc\	.	8ee\	.	.	.	8e\	-de-	8cc\	con-	.	.
8r	.	.	8r	.	8r	.	8r	.	.	.	8e\	-runt	8cc\	-fi-	.	.
=28	=28	=28	=28	=28	=28	=28	=28	=28	=28	=28	=28	=28	=28	=28	=28	=28
8F\L	6	.	8F\L	.	8dd\L	.	8aa\L	.	2ryy	2ryy	8f\	tri-	8dd\	-ten-	2ryy	2ryy
8F\	.	.	8F\	.	8dd\	.	8aa\	.	.	.	8f\	-bus	8dd\	-dum	.	.
*	*	*	*	*	*	*	*	*	*	*	*	*ij	*	*	*	*
8F#X\	7 5	.	8F#X\	.	8cc\	.	8aa\	.	.	.	8e\	tri-	16cc\	No-	.	.
.	.	.	.	.	.	.	.	.	.	.	.	.	16cc\	-mi-	.	.
8F#\J	.	.	8F#\J	.	8cc\J	.	8aa\J	.	.	.	8e\	-bus	8cc\	-ni	.	.
*	*	*	*	*	*	*	*	*	*	*	*	*Xij	*	*	*	*
=29	=29	=29	=29	=29	=29	=29	=29	=29	=29	=29	=29	=29	=29	=29	=29	=29
!LO:TX:t=P:problem:mixed beam	!	!	!LO:TX:t=P:problem:mixed beam	!	!	!	!	!	!	!	!	!	!	!	!	!
.	.	.	.	.	8qqcc/	.	8qqee/	.	.	.	.	.	.	.	.	.
8GG/L	n	.	8GG/L	.	4bn\	.	4dd\	.	2ryy	2ryy	8.d\	Do-	8.bn\	Do-	2ryy	2ryy
16G\L	.	.	16G\L	.	.	.	.	.	.	.	.	.	.	.	.	.
16F#X\JJ	.	.	16F#X\JJ	.	.	.	.	.	.	.	16d\	-mi-	16b\	-mi-	.	.
16G|\LL	.	.	16G|\LL	.	4r	.	4r	.	.	.	4d\	-ni	4b\	-ni	.	.
16D|\	.	.	16D|\	.	.	.	.	.	.	.	.	.	.	.	.	.
16BBn|\	.	.	16BBn|\	.	.	.	.	.	.	.	.	.	.	.	.	.
16D|\JJ	.	.	16D|\JJ	.	.	.	.	.	.	.	.	.	.	.	.	.
=30	=30	=30	=30	=30	=30	=30	=30	=30	=30	=30	=30	=30	=30	=30	=30	=30
*	*	*	*	*	*2\right	*	*2\right	*	*	*	*	*	*	*	*	*
8GG/L	#7r 2	.	8GG/L	.	2cc\	.	2ff#X\	.	2ryy	2ryy	8f#X\	qui-	8cc\	qui-	2ryy	2ryy
8GG/	.	.	8GG/	.	.	.	.	.	.	.	8f#\	-a	8cc\	-a	.	.
8GG/	.	.	8GG/	.	.	.	.	.	.	.	8f#\	il-	8cc\	il-	.	.
8GG/J	.	.	8GG/J	.	.	.	.	.	.	.	16f#\	-lic	16cc\	-lic	.	.
.	.	.	.	.	.	.	.	.	.	.	16f#\	se-	16cc\	se-	.	.
=31	=31	=31	=31	=31	=31	=31	=31	=31	=31	=31	=31	=31	=31	=31	=31	=31
8GG/L	8 n	.	8GG/L	.	2bn\	.	2gg\	.	2ryy	2ryy	4g\	-de-	4bn\	-de-	2ryy	2ryy
8GG/	.	.	8GG/	.	.	.	.	.	.	.	.	.	.	.	.	.
!	!	!	!	!	!	!	!	!	!	!	!	!	!LO:SIC:v:t=custos ff#	!	!	!
8GG/	.	.	8GG/	.	.	.	.	.	.	.	4g\	-runt	4b\	-runt	.	.
8GG/J	.	.	8GG/J	.	.	.	.	.	.	.	.	.	.	.	.	.
!LO:LB:g=original	!	!	!	!	!	!	!LO:LB:g=original	!	!	!	!	!	!	!	!	!
=32	=32	=32	=32	=32	=32	=32	=32	=32	=32	=32	=32	=32	=32	=32	=32	=32
8GG/L	#7r 2	.	8GG/L	.	2ff#X\	.	2ccc\	.	2ryy	2ryy	8cc\	se-	8ff#X\	se-	2ryy	2ryy
8GG/	.	.	8GG/	.	.	.	.	.	.	.	8cc\	-des	8ff#\	-des	.	.
8GG/	.	.	8GG/	.	.	.	.	.	.	.	8cc\	in	8ff#\	in	.	.
8GG/J	.	.	8GG/J	.	.	.	.	.	.	.	8cc\	ju-	8ff#\	ju-	.	.
=33	=33	=33	=33	=33	=33	=33	=33	=33	=33	=33	=33	=33	=33	=33	=33	=33
16r	.	.	16r	.	2gg\	.	2bbn\	.	2ryy	2ryy	8.bn\	-di-	8.gg\	-di-	2ryy	2ryy
16GG/LL	8 n	.	16GG/LL	.	.	.	.	.	.	.	.	.	.	.	.	.
16BBn/	.	.	16BBn/	.	.	.	.	.	.	.	.	.	.	.	.	.
16D/JJ	.	.	16D/JJ	.	.	.	.	.	.	.	16b\	-ci-	16gg\	-ci-	.	.
8G\L	.	.	8G\L	.	.	.	.	.	.	.	4b\	-o	4gg\	-o	.	.
8Fn\J	.	.	8Fn\J	.	.	.	.	.	.	.	.	.	.	.	.	.
!	!	!	!	!	!	!	!	!	!	!	!LO:PB:g=original	!	!	!	!	!
=34	=34	=34	=34	=34	=34	=34	=34	=34	=34	=34	=34	=34	=34	=34	=34	=34
!	!	!	!	!	!	!	!	!	!	!	!LO:TX:a:i:t=1.	!	!	!	!	!
4E\	6	.	4E\	.	4cc\	.	8r	.	2ryy	2ryy	2r	.	8r	.	2ryy	2ryy
.	.	.	.	.	.	.	(16gg\LL	.	.	.	.	.	(16gg\LL	se-	.	.
.	.	.	.	.	.	.	16ee\JJ)	.	.	.	.	.	16ee\J)	.	.	.
!	!	!	!	!	!LO:LB:g=original	!	!	!	!	!	!	!	!	!	!	!
8r	.	.	8r	.	8r	.	8cc\L	.	.	.	.	.	8cc\J	.	.	.
8C/	-7r	.	8C/	.	8g/	.	8b-\J	.	.	.	.	.	8b-X\	-des	.	.
=35	=35	=35	=35	=35	=35	=35	=35	=35	=35	=35	=35	=35	=35	=35	=35	=35
!	!	!	!	!	!LO:TX:t=P:problem:mixed beam	!	!	!	!	!	!	!	!	!	!	!
4F\	.	.	4F\	.	8f|/L	.	8a|\L	.	2ryy	2ryy	8r	.	8a\	su-	2ryy	2ryy
.	.	.	.	.	(8ff\	.	(8aa\	.	.	.	16a\	-su-	8ff\	-per	.	.
.	.	.	.	.	.	.	.	.	.	.	16a\	-per	.	.	.	.
8r	.	.	8r	.	8ee\	.	8gg\	.	.	.	8g\	do-	8ee\	do-	.	.
8F\	6	.	8F\	.	8dd\J)	.	8ff\J)	.	.	.	8f\	-mum	8dd\	-mum	.	.
=36	=36	=36	=36	=36	=36	=36	=36	=36	=36	=36	=36	=36	=36	=36	=36	=36
!LO:TX:t=P:problem:mixed beam	!	!	!LO:TX:t=P:problem:mixed beam	!	!	!	!	!	!	!	!	!	!	!	!	!
8GG/L	6 4	.	8GG/L	.	4cc\	.	4ee\	.	2ryy	2ryy	4e\	Da-	4cc\	Da-	2ryy	2ryy
16G\L	.	.	16G\L	.	.	.	.	.	.	.	.	.	.	.	.	.
16F\JJ	.	.	16F\JJ	.	.	.	.	.	.	.	.	.	.	.	.	.
8G\L	5 n	.	8G\L	.	4bnt\	.	4ddT\	.	.	.	4dT\	.	4bnt\	.	.	.
8F\J	.	.	8F\J	.	.	.	.	.	.	.	.	.	.	.	.	.
=37	=37	=37	=37	=37	=37	=37	=37	=37	=37	=37	=37	=37	=37	=37	=37	=37
4E\	6	.	4E\	.	4cc\	.	8cc\L	.	2ryy	2ryy	4c/	-vid	8cc\	-vid	2ryy	2ryy
.	.	.	.	.	.	.	(16gg\L	.	.	.	.	.	(16gg\LL	se-	.	.
.	.	.	.	.	.	.	16ee\JJ)	.	.	.	.	.	16ee\JJ)	.	.	.
8r	.	.	8r	.	8r	.	8cc\L	.	.	.	4r	.	8cc\	.	.	.
!	!	!	!LO:PB:g=original	!	!	!	!	!	!	!	!	!	!	!	!	!
8C/	-7r	.	8C/	.	8g/	.	8b-X\J	.	.	.	.	.	8b-X\	-des	.	.
=38	=38	=38	=38	=38	=38	=38	=38	=38	=38	=38	=38	=38	=38	=38	=38	=38
!	!	!	!	!	!LO:TX:t=P:problem:mixed beam	!	!	!	!	!	!	!	!	!	!	!
4F\	.	.	4F\	.	8f|/L	.	8a|\L	.	2ryy	2ryy	8r	.	8a\	su-	2ryy	2ryy
.	.	.	.	.	.	.	16qqff\LL	.	.	.	.	.	.	.	.	.
.	.	.	.	.	.	.	16qqgg\JJ	.	.	.	.	.	.	.	.	.
.	.	.	.	.	(8ff\	.	(8aa\	.	.	.	16a\	-su-	8ff\	-per	.	.
.	.	.	.	.	.	.	.	.	.	.	16a\	-per	.	.	.	.
8r	.	.	8r	.	8ee\	.	8gg\	.	.	.	8g\	do-	8ee\	do-	.	.
8F\	6	.	8F\	.	8dd\J)	.	8ff\J)	.	.	.	8f\	-mu(m)	8dd\	-mu(m)	.	.
=39	=39	=39	=39	=39	=39	=39	=39	=39	=39	=39	=39	=39	=39	=39	=39	=39
!LO:TX:t=P:problem:mixed beam	!	!	!LO:TX:t=P:problem:mixed beam	!	!	!	!	!	!	!	!	!	!	!	!	!
8G\L	6 4	.	8GG/L	.	4cc\	.	4ee\	.	2ryy	2ryy	4e\	Da-	4cc\	Da-	2ryy	2ryy
8G\	.	.	16G\L	.	.	.	.	.	.	.	.	.	.	.	.	.
.	.	.	16F\JJ	.	.	.	.	.	.	.	.	.	.	.	.	.
8GG/	7 n	.	8G\L	.	4bnt\	.	8.ddT\L	.	.	.	4dT\	.	4bnt\	.	.	.
8GG/J	.	.	8F\J	.	.	.	.	.	.	.	.	.	.	.	.	.
.	.	.	.	.	.	.	16cc\Jk	.	.	.	.	.	.	.	.	.
!	!	!	!	!	!	!	!	!	!	!	!	!	!LO:LB:g=original	!	!	!
=40	=40	=40	=40	=40	=40	=40	=40	=40	=40	=40	=40	=40	=40	=40	=40	=40
!LO:TX:t=P:problem:nadmiarowe takty 40-42 w partii Baſsone.	!	!	!	!	!LO:TX:t=P:problem:nadmiarowe takty 40-42 w partii Baſsone.	!	!LO:TX:t=P:problem:nadmiarowe takty 40-42 w partii Baſsone.	!	!	!	!LO:TX:t=P:problem:nadmiarowe takty 40-42 w partii Baſsone.	!	!LO:TX:t=P:problem:nadmiarowe takty 40-42 w partii Baſsone.	!	!LO:TX:t=P:problem:nadmiarowe takty 40-42 w partii Baſsone.	!LO:TX:t=P:problem:nadmiarowe takty 40-42 w partii Baſsone.
2ryy	.	.	4E\	.	2ryy	.	2ryy	.	2ryy	2ryy	2ryy	.	2ryy	.	2ryy	2ryy
.	.	.	8r	.	.	.	.	.	.	.	.	.	.	.	.	.
.	.	.	8C/	.	.	.	.	.	.	.	.	.	.	.	.	.
=41	=41	=41	=41	=41	=41	=41	=41	=41	=41	=41	=41	=41	=41	=41	=41	=41
2ryy	.	.	4F\	.	2ryy	.	2ryy	.	2ryy	2ryy	2ryy	.	2ryy	.	2ryy	2ryy
.	.	.	8r	.	.	.	.	.	.	.	.	.	.	.	.	.
.	.	.	8F\	.	.	.	.	.	.	.	.	.	.	.	.	.
=42	=42	=42	=42	=42	=42	=42	=42	=42	=42	=42	=42	=42	=42	=42	=42	=42
!	!	!	!LO:TX:t=P:problem:mixed beam	!	!	!	!	!	!	!	!	!	!	!	!	!
2ryy	.	.	8G\L	.	2ryy	.	2ryy	.	2ryy	2ryy	2ryy	.	2ryy	.	2ryy	2ryy
.	.	.	8G\	.	.	.	.	.	.	.	.	.	.	.	.	.
.	.	.	8GG/	.	.	.	.	.	.	.	.	.	.	.	.	.
.	.	.	8GG/J	.	.	.	.	.	.	.	.	.	.	.	.	.
=43	=43	=43	=43	=43	=43	=43	=43	=43	=43	=43	=43	=43	=43	=43	=43	=43
!LO:TX:t=P:problem:mixed beam	!	!LO:DY:t=for	!LO:TX:t=P:problem:mixed beam	!LO:DY:t=for	!	!LO:DY:t=for	!	!LO:DY:t=for	!	!	!	!	!	!	!	!
8C/L	.	f	8C/L	f	4cc|\	f	4ee|\	f	2ryy	2ryy	4e\	-vid.	4cc\	-vid.	2ryy	2ryy
8C/	.	.	8C/	.	.	.	.	.	.	.	.	.	.	.	.	.
8F\	6 5	.	8F\	.	4dd|\	.	4ffT\	.	.	.	4r	.	4r	.	.	.
8FF/J	.	.	8FF/J	.	.	.	.	.	.	.	.	.	.	.	.	.
=44	=44	=44	=44	=44	=44	=44	=44	=44	=44	=44	=44	=44	=44	=44	=44	=44
!	!	!	!	!	!	!	!	!	!	!	!LO:TX:a:i:t=8.	!	!LO:TX:a:i:t=7.	!	!	!
8C/L	.	.	8C/L	.	4.ee\	.	4.gg\	.	2ryy	2ryy	0r	.	0r	.	2ryy	2ryy
8C/	.	.	8C/	.	.	.	.	.	.	.	.	.	.	.	.	.
8C/	.	.	8C/	.	.	.	.	.	.	.	.	.	.	.	.	.
8C/J	6 4	.	8C/J	.	8ff\	.	8aa\	.	.	.	.	.	.	.	.	.
=45	=45	=45	=45	=45	=45	=45	=45	=45	=45	=45	=45	=45	=45	=45	=45	=45
8C/L	5 3	.	8C/L	.	4.ee\	.	4.gg\	.	2ryy	2ryy	.	.	.	.	2ryy	2ryy
8C/	.	.	8C/	.	.	.	.	.	.	.	.	.	.	.	.	.
8C/	.	.	8C/	.	.	.	.	.	.	.	.	.	.	.	.	.
8C/J	6 4	.	8C/J	.	8ff\	.	8aa\	.	.	.	.	.	.	.	.	.
!	!	!	!	!	!	!	!LO:LB:g=original	!	!	!	!	!	!	!	!	!
=46	=46	=46	=46	=46	=46	=46	=46	=46	=46	=46	=46	=46	=46	=46	=46	=46
!	!	!	!LO:TX:t=P:problem:mixed beam	!	!	!	!	!	!	!	!	!	!	!	!	!
8C\L	5 3	.	8C/L	.	8ee\L	.	8gg\L	.	2ryy	2ryy	.	.	.	.	2ryy	2ryy
8c\	.	.	8c\	.	16dd\L	.	16ff\L	.	.	.	.	.	.	.	.	.
.	.	.	.	.	16cc\JJ	.	16ee\JJ	.	.	.	.	.	.	.	.	.
8Bn\	6 5	.	8Bn\	.	8dd\L	.	8ff\L	.	.	.	.	.	.	.	.	.
8G\J	.	.	8G\J	.	8dd\J	.	8ff\J	.	.	.	.	.	.	.	.	.
=47	=47	=47	=47	=47	=47	=47	=47	=47	=47	=47	=47	=47	=47	=47	=47	=47
.	.	.	.	.	.	.	8qqgg/	.	.	.	.	.	.	.	.	.
8c\L	4 9	.	8c\L	.	8dd\L	.	8ff\L	.	2ryy	2ryy	.	.	.	.	2ryy	2ryy
8c\	3 8	.	8c\	.	8cc\J	.	8ee\J	.	.	.	.	.	.	.	.	.
!	!	!	!	!	!	!LO:DY:t=pia	!	!	!	!	!	!	!	!	!	!
8c\	6 4	.	8c\	.	4f/	p	4a/	p	.	.	.	.	.	.	.	.
8c\J	.	.	8c\J	.	.	.	.	.	.	.	.	.	.	.	.	.
=48	=48	=48	=48	=48	=48	=48	=48	=48	=48	=48	=48	=48	=48	=48	=48	=48
8C\L	5 3	.	8C\L	.	8e/L	.	8g/L	.	2ryy	2ryy	0r	.	1r	.	2ryy	2ryy
8c\	.	.	8c\	.	16d/L	.	16f/L	.	.	.	.	.	.	.	.	.
.	.	.	.	.	16c/JJ	.	16e/JJ	.	.	.	.	.	.	.	.	.
8Bn\	6 5	.	8Bn\	.	8d/L	.	8f/L	.	.	.	.	.	.	.	.	.
8G\J	.	.	8G\J	.	8d/J	.	8f/J	.	.	.	.	.	.	.	.	.
!	!	!	!	!	!LO:LB:g=original	!	!	!	!	!	!	!	!	!	!	!
=49	=49	=49	=49	=49	=49	=49	=49	=49	=49	=49	=49	=49	=49	=49	=49	=49
!	!	!	!	!	!	!LO:DY:t=for	!	!LO:DY:rj:t=for	!	!	!	!	!	!	!	!
8C\L	.	.	8C/L	.	4c/	f	(32e\KLL	f	2ryy	2ryy	.	.	.	.	2ryy	2ryy
.	.	.	.	.	.	.	16.dd\JJ)	.	.	.	.	.	.	.	.	.
8D\	.	.	8D/	.	.	.	(32cc\KLL	.	.	.	.	.	.	.	.	.
.	.	.	.	.	.	.	16.bn\JJ)	.	.	.	.	.	.	.	.	.
8E\	6	.	8E/	.	[4cc\	.	(32cc\KLL	.	.	.	.	.	.	.	.	.
.	.	.	.	.	.	.	16.bb-X\JJ)	.	.	.	.	.	.	.	.	.
8F\J	.	.	8F/J	.	.	.	(32aa\KLL	.	.	.	.	.	.	.	.	.
.	.	.	.	.	.	.	16.ff\JJ)	.	.	.	.	.	.	.	.	.
=50	=50	=50	=50	=50	=50	=50	=50	=50	=50	=50	=50	=50	=50	=50	=50	=50
*	*	*	*	*	*	*	*Xtuplet	*	*	*	*	*	*	*	*	*
!LO:TX:t=P:problem:mixed beam	!	!	!LO:TX:t=P:problem:mixed beam	!	!	!	!	!	!	!	!	!	!	!	!	!
8G\L	6 4	.	8G\L	.	8.cc\L]	.	((24ee\LL	.	2ryy	2ryy	.	.	2r	.	2ryy	2ryy
.	.	.	.	.	.	.	24dd\)	.	.	.	.	.	.	.	.	.
.	.	.	.	.	.	.	24cc\JJ	.	.	.	.	.	.	.	.	.
8G\	.	.	8G\	.	.	.	16ccc\LL)	.	.	.	.	.	.	.	.	.
.	.	.	.	.	16a\Jk	.	16cc\JJ	.	.	.	.	.	.	.	.	.
8GG/	5 n	.	8GG/	.	4bnt\	.	4ddT\	.	.	.	.	.	.	.	.	.
8GG/J	.	.	8GG/J	.	.	.	.	.	.	.	.	.	.	.	.	.
!LO:LB:g=original	!	!	!	!	!	!	!	!	!	!	!	!	!	!	!	!
=51	=51	=51	=51	=51	=51	=51	=51	=51	=51	=51	=51	=51	=51	=51	=51	=51
!LO:TX:t=P:problem:mixed beam	!	!	!LO:TX:t=P:problem:mixed beam	!	!	!	!	!	!	!	!	!	!	!	!	!
8C/L	.	.	8C/L	.	8cc|\L	.	8cc|\L	.	2ryy	2ryy	.	.	4r	.	2ryy	2ryy
8c\	.	.	8c\	.	8g|\J	.	8g|\J	.	.	.	.	.	.	.	.	.
!	!	!	!	!	!LO:TX:b:i:t=Volti Subito.	!	!LO:TX:i:b:t=Volti.	!	!	!	!	!	!	!	!	!
8C/J	.	.	8C/J	.	4c/	.	4c/	.	.	.	.	.	8r	.	.	.
8r	.	.	8r	.	.	.	.	.	.	.	.	.	8c/	ro-	.	.
!	!	!	!LO:LB:g=original	!	!LO:PB:g=original	!	!LO:PB:g=original	!	!	!	!	!	!	!	!	!
=52	=52	=52	=52	=52	=52	=52	=52	=52	=52	=52	=52	=52	=52	=52	=52	=52
*	*	*	*	*	*	*	*	*	*	*	*	*	*2\right	*	*	*
!	!	!	!	!	!	!LO:DY:t=pian	!	!LO:DY:t=pian	!	!	!	!	!	!	!	!
8r	.	.	8r	.	8r	p	2bbn\	p	2ryy	2ryy	8r	.	2bn\	-ga-	2ryy	2ryy
!	!	!LO:DY:t=pia&colon;	!	!LO:DY:t=po.	!	!	!	!	!	!	!	!	!	!	!	!
8D-X/L	6|	p	8D-X/L	p	8ff\L	.	.	.	.	.	16f\	quae	.	.	.	.
.	.	.	.	.	.	.	.	.	.	.	16f\	ad	.	.	.	.
8D-/	.	.	8D-/	.	8ff\	.	.	.	.	.	8f\	pa-	.	.	.	.
8D-/J	.	.	8D-/J	.	8ff\J	.	.	.	.	.	8f\	-cem	.	.	.	.
=53	=53	=53	=53	=53	=53	=53	=53	=53	=53	=53	=53	=53	=53	=53	=53	=53
4C/	n	.	4C/	.	8ee\L	.	16ccc\LL	.	2ryy	2ryy	4e\	sunt	4cc\	-te	2ryy	2ryy
.	.	.	.	.	.	.	16gg\	.	.	.	.	.	.	.	.	.
.	.	.	.	.	16cc\L	.	16ee\	.	.	.	.	.	.	.	.	.
.	.	.	.	.	16a\JJ	.	16cc\JJ	.	.	.	.	.	.	.	.	.
4r	.	.	4r	.	(8f/L	.	(8a/L	.	.	.	4r	.	8r	.	.	.
*	*	*	*	*	*	*	*	*	*	*	*	*	*	*ij	*	*
.	.	.	.	.	8e/J)	.	8g/J)	.	.	.	.	.	8cc\	ro-	.	.
=54	=54	=54	=54	=54	=54	=54	=54	=54	=54	=54	=54	=54	=54	=54	=54	=54
8r	.	.	8r	.	8r	.	2ffT\	.	2ryy	2ryy	4bn\	sunt	2ff\	-ga-	2ryy	2ryy
8D-X/L	6|	.	8D-X/L	.	8bn\L	.	.	.	.	.	.	.	.	.	.	.
8D-/	.	.	8D-/	.	8b\	.	.	.	.	.	4b\	Je-	.	.	.	.
8D-/J	.	.	8D-/J	.	8b\J	.	.	.	.	.	.	.	.	.	.	.
!	!	!	!	!	!	!	!	!	!	!	!LO:LB:g=original	!	!	!	!	!
=55	=55	=55	=55	=55	=55	=55	=55	=55	=55	=55	=55	=55	=55	=55	=55	=55
8C\L	n	.	8C|\L	.	8cc\L	.	(16ee\LL	.	2ryy	2ryy	8.cc\	-ru-	4ee\	-te	2ryy	2ryy
*	*	*	*	*	*	*	*	*	*	*	*	*	*	*Xij	*	*
.	.	.	.	.	.	.	16cc\)	.	.	.	.	.	.	.	.	.
8C|\	.	.	8C|\	.	16ee\L	.	(16gg\	.	.	.	.	.	.	.	.	.
.	.	.	.	.	16cc\JJ	.	16ee\JJ)	.	.	.	16cc\	-sa-	.	.	.	.
8E|\	.	.	8E|\	.	16gg\LL	.	16ccc\LL	.	.	.	4cc\	-lem	4r	.	.	.
.	.	.	.	.	16ee\	.	16gg\	.	.	.	.	.	.	.	.	.
8G|\J	.	.	8G|\J	.	16cc\	.	16ee\	.	.	.	.	.	.	.	.	.
.	.	.	.	.	16g\JJ	.	16cc\JJ	.	.	.	.	.	.	.	.	.
=56	=56	=56	=56	=56	=56	=56	=56	=56	=56	=56	=56	=56	=56	=56	=56	=56
!	!	!	!	!	!LO:TX:t=P:problem:mixed beam	!	!LO:TX:t=P:problem:mixed beam	!	!	!	!LO:TX:a:i:t=1.	!	!	!	!	!
8B-X\L	2	.	8B-X\L	.	8e/L	.	8g/L	.	2ryy	2ryy	2r	.	8r	.	2ryy	2ryy
8B-\	.	.	8B-\	.	8ee\	.	8gg\	.	.	.	.	.	8gg\	et	.	.
.	.	.	.	.	.	.	8qqff/	.	.	.	.	.	.	.	.	.
8B-\	.	.	8B-\	.	8cc\	.	8ee\	.	.	.	.	.	8ee\	a-	.	.
.	.	.	.	.	.	.	8qqdd/	.	.	.	.	.	.	.	.	.
8B-\J	.	.	8B-\J	.	8ee\J	.	8cc\J	.	.	.	.	.	8cc\	-bun-	.	.
=57	=57	=57	=57	=57	=57	=57	=57	=57	=57	=57	=57	=57	=57	=57	=57	=57
8A\L	6	.	8A\L	.	8cc\L	.	[2ff\	.	2ryy	2ryy	8r	.	8.ff\	-dan-	2ryy	2ryy
8A\	.	.	8A\	.	8cc\	.	.	.	.	.	16cc\	di-	.	.	.	.
.	.	.	.	.	.	.	.	.	.	.	16cc\	-li	16ff\	-ti-	.	.
8A\	.	.	8A\	.	8cc\	.	.	.	.	.	16a\	gen-	4ff\	-a	.	.
.	.	.	.	.	.	.	.	.	.	.	16a\	-ti-	.	.	.	.
8A\J	.	.	8A\J	.	8cc\J	.	.	.	.	.	8f\	-bus	.	.	.	.
=58	=58	=58	=58	=58	=58	=58	=58	=58	=58	=58	=58	=58	=58	=58	=58	=58
*	*	*	*	*	*	*	*	*	*	*	*2\right	*	*	*	*	*
8A\L	2	.	8A\L	.	8dd\L	.	8ff\L]	.	2ryy	2ryy	2b-\	te	8r	.	2ryy	2ryy
8A\	.	.	8A\	.	8dd\	.	8ff\	.	.	.	.	.	8ff\	fi-	.	.
.	.	.	.	.	.	.	8qqee/	.	.	.	.	.	.	.	.	.
8A\	.	.	8A\	.	8b-\	.	8dd\	.	.	.	.	.	8dd\	-at	.	.
.	.	.	.	.	.	.	8qqcc/	.	.	.	.	.	.	.	.	.
8A\J	.	.	8A\J	.	8dd\J	.	8b-\J	.	.	.	.	.	8b-\	pax	.	.
!LO:LB:g=original	!	!	!	!	!	!	!	!	!	!	!	!	!	!	!	!
=59	=59	=59	=59	=59	=59	=59	=59	=59	=59	=59	=59	=59	=59	=59	=59	=59
8G\L	6	.	8G\L	.	8b-\L	.	[2ee\	.	2ryy	2ryy	8r	.	2ee\	in	2ryy	2ryy
8G\	.	.	8G\	.	8b-\	.	.	.	.	.	8b-\	et	.	.	.	.
8G\	.	.	8G\	.	8b-\	.	.	.	.	.	8g\	a-	.	.	.	.
8G\J	.	.	8G\J	.	8b-\J	.	.	.	.	.	8e\	-bun-	.	.	.	.
=60	=60	=60	=60	=60	=60	=60	=60	=60	=60	=60	=60	=60	=60	=60	=60	=60
8G\L	4| 2	.	8G\L	.	8cc#X\L	.	8ee\L]	.	2ryy	2ryy	8.a\	-dan-	8r	.	2ryy	2ryy
8G\	.	.	8G\	.	8cc#\	.	8ee\	.	.	.	.	.	8ee\	vir-	.	.
.	.	.	.	.	.	.	.	.	.	.	16a\	-ti-	.	.	.	.
.	.	.	.	.	.	.	8qqdd/	.	.	.	.	.	.	.	.	.
8G\	.	.	8G\	.	8a\	.	8cc#X\	.	.	.	4a\	-a	8cc#X\	-tu-	.	.
.	.	.	.	.	.	.	8qqb-/	.	.	.	.	.	.	.	.	.
8G\J	.	.	8G\J	.	8cc#X\J	.	8a\J	.	.	.	.	.	8a\	-te	.	.
!	!	!	!	!	!	!	!	!	!	!	!	!	!LO:LB:g=original	!	!	!
=61	=61	=61	=61	=61	=61	=61	=61	=61	=61	=61	=61	=61	=61	=61	=61	=61
4F\	6	.	4F\	.	4a/	.	8dd\L	.	2ryy	2ryy	8r	.	8dd\	tu-	2ryy	2ryy
.	.	.	.	.	.	.	8qqbb-/	.	.	.	.	.	.	.	.	.
.	.	.	.	.	.	.	8aa\	.	.	.	8a\	in	8dd\	-a	.	.
.	.	.	.	.	.	.	8qqgg/	.	.	.	.	.	.	.	.	.
8r	.	.	8r	.	8r	.	8ff\	.	.	.	8f\	tur-	4r	.	.	.
.	.	.	.	.	.	.	8qqee/	.	.	.	.	.	.	.	.	.
8F\	6	.	8F\	.	8a/	.	8dd\J	.	.	.	16d\	-ri-	.	.	.	.
.	.	.	.	.	.	.	.	.	.	.	16d\	-bus	.	.	.	.
=62	=62	=62	=62	=62	=62	=62	=62	=62	=62	=62	=62	=62	=62	=62	=62	=62
8G\L	n	.	8G\L	.	4g/	.	8bn\L	.	2ryy	2ryy	(4g\	tur-	(8bn\L	tur-	2ryy	2ryy
8A\	7 #	.	8A\	.	.	.	8cc#X\J	.	.	.	.	.	8cc#X\J)	.	.	.
8B-\	5	.	8B-\	.	[4f/	.	[4dd\	.	.	.	8f\)	.	8dd\	.	.	.
8G\J	.	.	8G\J	.	.	.	.	.	.	.	16f\	-ri-	16dd\	-ri-	.	.
.	.	.	.	.	.	.	.	.	.	.	16f\	-bus	16dd\	-bus	.	.
!	!	!	!	!	!	!	!	!	!	!	!LO:LB:g=original	!	!	!	!	!
=63	=63	=63	=63	=63	=63	=63	=63	=63	=63	=63	=63	=63	=63	=63	=63	=63
!LO:TX:t=P:problem:mixed beam	!	!	!LO:TX:t=P:problem:mixed beam	!	!	!	!	!	!	!	!	!	!	!	!	!
8A\L	6 4	.	8A\L	.	4f/]	.	4dd\]	.	2ryy	2ryy	4f\	tu-	(4dd\	tu-	2ryy	2ryy
8G\	.	.	8G\	.	.	.	.	.	.	.	.	.	.	.	.	.
8A\	5 #	.	8A\	.	4et/	.	8.cc#t\L	.	.	.	4et\	.	4cc#Xt\)	.	.	.
8AA/J	.	.	8AA/J	.	.	.	.	.	.	.	.	.	.	.	.	.
!	!	!	!	!	!	!	!	!LO:DY:t=for&colon;	!	!	!	!	!	!	!	!
.	.	.	.	.	.	.	16aa\Jk	f	.	.	.	.	.	.	.	.
!	!	!	!	!	!	!	!LO:LB:g=original	!	!	!	!	!	!	!	!	!
=64	=64	=64	=64	=64	=64	=64	=64	=64	=64	=64	=64	=64	=64	=64	=64	=64
!LO:TX:t=P:problem:mixed beam	!	!	!	!	!	!LO:DY:t=for	!	!	!	!	!	!	!	!	!	!
8DD/L	.	.	8DD/L	.	4dd\	f	4ff\	.	2ryy	2ryy	4f\	-is	4dd\	-is	2ryy	2ryy
!	!	!LO:DY:t=for&colon;	!	!LO:DY:t=for	!	!	!	!	!	!	!	!	!	!	!	!
8D\J	.	f	8D/J	f	.	.	.	.	.	.	.	.	.	.	.	.
!	!	!	!LO:LB:g=original	!	!	!	!	!	!	!	!	!	!	!	!	!
!	!	!	!LO:TX:t=P:problem:mixed beam	!	!	!	!	!	!	!	!	!	!	!	!	!
8G\L	6 5	.	8G\L	.	4ee\	.	4gg\	.	.	.	4r	.	4r	.	.	.
8GG/J	.	.	8GG/J	.	.	.	.	.	.	.	.	.	.	.	.	.
!	!	!	!	!	!LO:LB:g=original	!	!	!	!	!	!	!	!	!	!	!
=65	=65	=65	=65	=65	=65	=65	=65	=65	=65	=65	=65	=65	=65	=65	=65	=65
!	!	!	!	!	!	!	!	!	!	!	!LO:TX:a:i:t=8.	!	!LO:TX:a:i:t=8.	!	!	!
8D/L	.	.	8D/L	.	4.ff\	.	4.aa\	.	2ryy	2ryy	0r	.	0r	.	2ryy	2ryy
8D/	.	.	8D/	.	.	.	.	.	.	.	.	.	.	.	.	.
8D/	.	.	8D/	.	.	.	.	.	.	.	.	.	.	.	.	.
8D/J	6 4	.	8D/J	.	8gg\	.	8bb-\	.	.	.	.	.	.	.	.	.
=66	=66	=66	=66	=66	=66	=66	=66	=66	=66	=66	=66	=66	=66	=66	=66	=66
.	.	.	.	.	8qqgg/	.	.	.	.	.	.	.	.	.	.	.
8D/L	5 3	.	8D/L	.	4.ff\	.	4.aa\	.	2ryy	2ryy	.	.	.	.	2ryy	2ryy
8D/	.	.	8D/	.	.	.	.	.	.	.	.	.	.	.	.	.
8D/	.	.	8D/	.	.	.	.	.	.	.	.	.	.	.	.	.
8D/J	6 4	.	8D/J	.	8gg\	.	8bb-\	.	.	.	.	.	.	.	.	.
!LO:LB:g=original	!	!	!	!	!	!	!	!	!	!	!	!	!	!	!	!
=67	=67	=67	=67	=67	=67	=67	=67	=67	=67	=67	=67	=67	=67	=67	=67	=67
!LO:TX:t=P:problem:mixed beam	!	!	!LO:TX:t=P:problem:mixed beam	!	!	!	!	!	!	!	!	!	!	!	!	!
8d\L	5 3	.	8d\L	.	8ff\L	.	8aa\L	.	2ryy	2ryy	.	.	.	.	2ryy	2ryy
8D/	.	.	8D/	.	16ee\L	.	16gg\L	.	.	.	.	.	.	.	.	.
.	.	.	.	.	16dd\JJ	.	16ff\JJ	.	.	.	.	.	.	.	.	.
8C#X/	6 5	.	8C#X/	.	8ee\L	.	8gg\L	.	.	.	.	.	.	.	.	.
8AA/J	.	.	8AA/J	.	8ee\J	.	8gg\J	.	.	.	.	.	.	.	.	.
=68	=68	=68	=68	=68	=68	=68	=68	=68	=68	=68	=68	=68	=68	=68	=68	=68
8D/L	5 3	.	8D/L	.	16dd\LL	.	16ff\LL	.	2ryy	2ryy	.	.	.	.	2ryy	2ryy
.	.	.	.	.	16ee\JJ	.	16gg\JJ	.	.	.	.	.	.	.	.	.
8D/	.	.	8D/	.	4ff\	.	4aa\	.	.	.	.	.	.	.	.	.
8D/	.	.	8D/	.	.	.	.	.	.	.	.	.	.	.	.	.
8D/J	6 4	.	8D/J	.	8gg\	.	8bb-\	.	.	.	.	.	.	.	.	.
=69	=69	=69	=69	=69	=69	=69	=69	=69	=69	=69	=69	=69	=69	=69	=69	=69
!LO:TX:t=P:problem:mixed beam	!	!	!LO:TX:t=P:problem:mixed beam	!	!	!	!	!	!	!	!	!	!	!	!	!
8d\L	5 3	.	8d\L	.	8ff\L	.	8aa\L	.	2ryy	2ryy	0r	.	0r	.	2ryy	2ryy
8D/	.	.	8D/	.	16ee\L	.	16gg\L	.	.	.	.	.	.	.	.	.
.	.	.	.	.	16dd\JJ	.	16ff\JJ	.	.	.	.	.	.	.	.	.
8C#X/	6 5	.	8C#X/	.	8ee\L	.	8gg\L	.	.	.	.	.	.	.	.	.
8AA/J	.	.	8AA/J	.	8ee\J	.	8gg\J	.	.	.	.	.	.	.	.	.
=70	=70	=70	=70	=70	=70	=70	=70	=70	=70	=70	=70	=70	=70	=70	=70	=70
.	.	.	.	.	.	.	8qqaa/	.	.	.	.	.	.	.	.	.
8D\L	.	.	8D\L	.	8ee\L	.	8gg\L	.	2ryy	2ryy	.	.	.	.	2ryy	2ryy
8d\J	.	.	8d\J	.	8dd\J	.	8ff\J	.	.	.	.	.	.	.	.	.
8r	.	.	8r	.	[4bb-\	.	4ddd\	.	.	.	.	.	.	.	.	.
8G\	.	.	8G\	.	.	.	.	.	.	.	.	.	.	.	.	.
=71	=71	=71	=71	=71	=71	=71	=71	=71	=71	=71	=71	=71	=71	=71	=71	=71
8E\L	6 5	.	8E\L	.	8bb-\L]	.	4.ccc\	.	2ryy	2ryy	.	.	.	.	2ryy	2ryy
8C\J	.	.	8C\J	.	16aa\L	.	.	.	.	.	.	.	.	.	.	.
.	.	.	.	.	16gg\JJ	.	.	.	.	.	.	.	.	.	.	.
8r	.	.	8r	.	[4aa\	.	.	.	.	.	.	.	.	.	.	.
8F\	.	.	8F\	.	.	.	16bb-\LL	.	.	.	.	.	.	.	.	.
.	.	.	.	.	.	.	16aa\JJ	.	.	.	.	.	.	.	.	.
=72	=72	=72	=72	=72	=72	=72	=72	=72	=72	=72	=72	=72	=72	=72	=72	=72
8D/L	6 5	.	8D/L	.	8aa\L]	.	4.bb-\	.	2ryy	2ryy	.	.	.	.	2ryy	2ryy
8BB-/J	.	.	8BB-/J	.	16gg\L	.	.	.	.	.	.	.	.	.	.	.
.	.	.	.	.	16ff\JJ	.	.	.	.	.	.	.	.	.	.	.
8r	.	.	8r	.	4gg\	.	.	.	.	.	.	.	.	.	.	.
8E\	6 5	.	8E\	.	.	.	16aa\LL	.	.	.	.	.	.	.	.	.
.	.	.	.	.	.	.	16gg\JJ	.	.	.	.	.	.	.	.	.
=73	=73	=73	=73	=73	=73	=73	=73	=73	=73	=73	=73	=73	=73	=73	=73	=73
!LO:TX:t=P:problem:mixed beam	!	!	!LO:TX:t=P:problem:mixed beam	!	!	!LO:DY:t=pia	!	!LO:DY:t=Pia&colon;	!	!	!	!	!	!	!	!
8F\L	.	.	8F\L	.	4ff\	p	4aa\	p	2ryy	2ryy	4f\	pro-	4a\	pro-	2ryy	2ryy
!	!	!	!	!LO:DY:t=piano	!	!	!	!	!	!	!	!	!	!	!	!
8F\	.	.	8F\	p	.	.	.	.	.	.	.	.	.	.	.	.
!	!	!LO:DY:t=pian	!	!	!	!	!	!	!	!	!	!	!	!	!	!
8B-\	6 5	p	8B-\	.	4gg\	.	4bb-\	.	.	.	4g\	-pter	4b-X\	-pter	.	.
8BB-/J	.	.	8BB-/J	.	.	.	.	.	.	.	.	.	.	.	.	.
!LO:LB:g=original	!	!	!	!	!	!	!	!	!	!	!	!	!	!	!	!
=74	=74	=74	=74	=74	=74	=74	=74	=74	=74	=74	=74	=74	=74	=74	=74	=74
8F\L	.	.	8F\L	.	4.aa\	.	4.ccc\	.	2ryy	2ryy	4.a\	fra-	4.cc\	fra-	2ryy	2ryy
8F\	.	.	8F\	.	.	.	.	.	.	.	.	.	.	.	.	.
8F\	.	.	8F\	.	.	.	.	.	.	.	.	.	.	.	.	.
8F\J	6 4	.	8F\J	.	8bb-\	.	8ddd\	.	.	.	8b-\	-tres	8dd\	-tres	.	.
=75	=75	=75	=75	=75	=75	=75	=75	=75	=75	=75	=75	=75	=75	=75	=75	=75
8F\L	5 3	.	8F\L	.	4.aa\	.	4.ccc\	.	2ryy	2ryy	4.a\	me-	4.cc\	me-	2ryy	2ryy
8F\	.	.	8F\	.	.	.	.	.	.	.	.	.	.	.	.	.
8F\	.	.	8F\	.	.	.	.	.	.	.	.	.	.	.	.	.
8F\J	6 4	.	8F\J	.	8bb-\	.	8ddd\	.	.	.	8b-\	-os	8dd\	-os	.	.
=76	=76	=76	=76	=76	=76	=76	=76	=76	=76	=76	=76	=76	=76	=76	=76	=76
8F\L	5 3	.	8F\L	.	8aa\L	.	8ccc\L	.	2ryy	2ryy	4a\	et	4cc\	et	2ryy	2ryy
8F\	.	.	8F\	.	16gg\L	.	16bb-\L	.	.	.	.	.	.	.	.	.
.	.	.	.	.	16ff\JJ	.	16aa\JJ	.	.	.	.	.	.	.	.	.
8E\	6 5	.	8E\	.	8gg\L	.	8bb-\L	.	.	.	8g\	pro-	8b-\	pro-	.	.
8C\J	.	.	8C\J	.	8gg\J	.	8bb-\J	.	.	.	16g\	-xi-	16b-\	-xi-	.	.
.	.	.	.	.	.	.	.	.	.	.	16g\	-mos	16b-\	-mos	.	.
!	!	!	!LO:LB:g=original	!	!	!	!	!	!	!	!	!	!	!	!	!
=77	=77	=77	=77	=77	=77	=77	=77	=77	=77	=77	=77	=77	=77	=77	=77	=77
!LO:TX:t=P:problem:mixed beam	!	!	!LO:TX:t=P:problem:mixed beam	!	!	!	!	!	!	!	!	!	!	!	!	!
8FF/L	.	.	8FF/L	.	8gg\L	.	8bb-\L	.	2ryy	2ryy	8g\	me-	8b-\	me-	2ryy	2ryy
8F\	.	.	8F\	.	8ff\J	.	8aa\J	.	.	.	8f\	-os	8a\	-os	.	.
!	!	!	!	!	!	!	!	!	!	!	!	!	!LO:LB:g=original	!	!	!
8F\	6 4	.	8F\	.	4bb-\	.	4ddd\	.	.	.	4b-\	lo-	4dd\	lo-	.	.
8F\J	.	.	8F\J	.	.	.	.	.	.	.	.	.	.	.	.	.
=78	=78	=78	=78	=78	=78	=78	=78	=78	=78	=78	=78	=78	=78	=78	=78	=78
8F\L	5 3	.	8F\L	.	8aa\L	.	8ccc\L	.	2ryy	2ryy	8a\	-que-	8cc\	-que-	2ryy	2ryy
8F\	.	.	8F\	.	16gg\L	.	16bb-\L	.	.	.	(16g\LL	-bar	(16b-\LL	-bar	.	.
.	.	.	.	.	16ff\JJ	.	16aa\JJ	.	.	.	16f\JJ)	.	16a\JJ)	.	.	.
8E\	6 5	.	8E\	.	8gg\L	.	8bb-\L	.	.	.	8g\	pa-	8b-\	pa-	.	.
8C\J	.	.	8C\J	.	8gg\J	.	8bb-\J	.	.	.	8g\	-cem	8b-\	-cem	.	.
!	!	!	!	!	!LO:LB:g=original	!	!LO:LB:g=original	!	!	!	!	!	!	!	!	!
=79	=79	=79	=79	=79	=79	=79	=79	=79	=79	=79	=79	=79	=79	=79	=79	=79
*	*	*	*	*	*^	*	*	*	*	*	*	*	*	*	*	*
!LO:TX:t=P:problem:mixed beam	!	!	!LO:TX:t=P:problem:mixed beam	!	!	!	!	!	!	!	!	!	!	!	!	!	!
.	.	.	.	.	.	.	.	.	.	.	.	.	.	8qqcc/	.	.	.
8F\L	4 9	.	8F\L	.	8gg\L	4ryy	.	8bb-\L	.	2ryy	2ryy	8g\	de	8b-\	de	2ryy	2ryy
8FF/J	3 8	.	8FF/J	.	8ff\J	.	.	8aa\J	.	.	.	8f\	te	8a\	te	.	.
16c|\LL	6 4	.	16c|\LL	.	4ff/ 4a/	4f\	.	4aa/ 4cc/ 4f/	.	.	.	4r	.	4r	.	.	.
16B-|\	.	.	16B-|\	.	.	.	.	.	.	.	.	.	.	.	.	.	.
16A|\	.	.	16A|\	.	.	.	.	.	.	.	.	.	.	.	.	.	.
16G|\JJ	.	.	16G|\JJ	.	.	.	.	.	.	.	.	.	.	.	.	.	.
*	*	*	*	*	*v	*v	*	*	*	*	*	*	*	*	*	*	*
=80	=80	=80	=80	=80	=80	=80	=80	=80	=80	=80	=80	=80	=80	=80	=80	=80
!	!	!	!	!	!	!	!	!	!	!	!LO:TX:a:i:t=2.	!	!	!	!	!
8F\L	6	.	8F\L	.	8a/L	.	8r	.	2ryy	2ryy	1r	.	(8aa\L	pro-	2ryy	2ryy
8F\	.	.	8F\	.	8a/	.	(8dd\L	.	.	.	.	.	8ff\J)	.	.	.
8F\	.	.	8F\	.	8a/	.	8ee\	.	.	.	.	.	(8ee\L	-pter	.	.
8F\J	.	.	8F\J	.	8a/J	.	8ff\J)	.	.	.	.	.	8dd\J)	.	.	.
=81	=81	=81	=81	=81	=81	=81	=81	=81	=81	=81	=81	=81	=81	=81	=81	=81
8F\L	6	.	8F\L	.	8a/L	.	8r	.	2ryy	2ryy	.	.	4.aa\	do-	2ryy	2ryy
8F\	.	.	8F\	.	8a/	.	8dd\L	.	.	.	.	.	.	.	.	.
8F\	5	.	8F\	.	8a/	.	8ff\	.	.	.	.	.	.	.	.	.
8F\J	.	.	8F\J	.	8a/J	.	8aa\J	.	.	.	.	.	8cc\	-mum	.	.
!LO:LB:g=original	!	!	!	!	!	!	!	!	!	!	!LO:LB:g=original	!	!	!	!	!
=82	=82	=82	=82	=82	=82	=82	=82	=82	=82	=82	=82	=82	=82	=82	=82	=82
8F\L	n4r 2	.	8F\L	.	8g/L	.	8bn\L	.	2ryy	2ryy	(8dd\L	Do-	4.bn\	Do-	2ryy	2ryy
8F\	.	.	8F\	.	8g/	.	8gg\	.	.	.	8bn\J)	.	.	.	.	.
8F\	.	.	8F\	.	8g/	.	8aa\	.	.	.	8a\	mi-	.	.	.	.
8F\J	.	.	8F\J	.	8g/J	.	[8bbn\J	.	.	.	8g\	-ni	8b\	-mi-	.	.
=83	=83	=83	=83	=83	=83	=83	=83	=83	=83	=83	=83	=83	=83	=83	=83	=83
8F\L	n4r 2	.	8F\L	.	8g/L	.	8bb\L]	.	2ryy	2ryy	4.dd\	De-	2bn\	-ni	2ryy	2ryy
8F\	.	.	8F\	.	8g/	.	8gg\	.	.	.	.	.	.	.	.	.
8F\	.	.	8F\	.	8g/	.	8dd\	.	.	.	.	.	.	.	.	.
8F\J	.	.	8F\J	.	8g/J	.	8bn\J	.	.	.	8g\	-i	.	.	.	.
=84	=84	=84	=84	=84	=84	=84	=84	=84	=84	=84	=84	=84	=84	=84	=84	=84
8E\L	6	.	8E\L	.	8g/L	.	8r	.	2ryy	2ryy	2g\	nos-	(8gg\L	quae-	2ryy	2ryy
8E\	.	.	8E\	.	8g/	.	8cc\L	.	.	.	.	.	8ee\J)	.	.	.
8E\	.	.	8E\	.	8g/	.	8dd\	.	.	.	.	.	8dd\	-si-	.	.
8E\J	.	.	8E\J	.	8g/J	.	8ee\J	.	.	.	.	.	8cc\	-vi	.	.
=85	=85	=85	=85	=85	=85	=85	=85	=85	=85	=85	=85	=85	=85	=85	=85	=85
8E\L	6	.	8E\L	.	8g/L	.	8r	.	2ryy	2ryy	2g\	-tri	4.gg\	bo-	2ryy	2ryy
8E\	.	.	8E\	.	8g/	.	8cc\L	.	.	.	.	.	.	.	.	.
8E\	-5	.	8E\	.	8g/	.	8ee\	.	.	.	.	.	.	.	.	.
8E\J	.	.	8E\J	.	8g/J	.	8gg\J	.	.	.	.	.	8b-X\	-na	.	.
=86	=86	=86	=86	=86	=86	=86	=86	=86	=86	=86	=86	=86	=86	=86	=86	=86
8E-X\L	4 2	.	8E-X\L	.	8f/L	.	8a\L	.	2ryy	2ryy	(8cc\L	quae-	2a\	ti-	2ryy	2ryy
8E-\	.	.	8E-\	.	8f/	.	8ff\	.	.	.	8a\J)	.	.	.	.	.
8E-\	.	.	8E-\	.	8f/	.	8gg\	.	.	.	8g\	-si-	.	.	.	.
8E-\J	.	.	8E-\J	.	8f/J	.	[8aa\J	.	.	.	8f\	-vi	.	.	.	.
!	!	!	!	!	!	!	!	!	!	!	!	!	!LO:LB:g=original	!	!	!
=87	=87	=87	=87	=87	=87	=87	=87	=87	=87	=87	=87	=87	=87	=87	=87	=87
8E-X\L	4 2	.	8E-X\L	.	8f/L	.	8aa\L]	.	2ryy	2ryy	4.cc\	bo-	2a\	-bi	2ryy	2ryy
8E-\	.	.	8E-\	.	8f/	.	8ff\	.	.	.	.	.	.	.	.	.
8E-\	.	.	8E-\	.	8f/	.	8cc\	.	.	.	.	.	.	.	.	.
8E-\J	.	.	8E-\J	.	8f/J	.	8a\J	.	.	.	8f\	-na	.	.	.	.
=88	=88	=88	=88	=88	=88	=88	=88	=88	=88	=88	=88	=88	=88	=88	=88	=88
*	*	*	*	*	*	*	*	*	*	*	*	*ij	*	*	*	*
8D/L	6	.	8D/L	.	4f/	.	4b-\	.	2ryy	2ryy	2f\	bo-	2b-\	bo-	2ryy	2ryy
8D/	.	.	8D/	.	.	.	.	.	.	.	.	.	.	.	.	.
8D/	.	.	8D/	.	[4ff\	.	4bb-\	.	.	.	.	.	.	.	.	.
8D/J	.	.	8D/J	.	.	.	.	.	.	.	.	.	.	.	.	.
!LO:LB:g=original	!	!	!LO:LB:g=original	!	!	!	!	!	!	!	!	!	!	!	!	!
=89	=89	=89	=89	=89	=89	=89	=89	=89	=89	=89	=89	=89	=89	=89	=89	=89
8BBn/L	7 5	.	8BBn/L	.	4ff\]	.	4aa\	.	2ryy	2ryy	2f\	-na	2a\	-na	2ryy	2ryy
8BB/	.	.	8BB/	.	.	.	.	.	.	.	.	.	.	.	.	.
8BB/	.	.	8BB/	.	4f/	.	4a/	.	.	.	.	.	.	.	.	.
8BB/J	.	.	8BB/J	.	.	.	.	.	.	.	.	.	.	.	.	.
*	*	*	*	*	*	*	*	*	*	*	*	*Xij	*	*	*	*
=90	=90	=90	=90	=90	=90	=90	=90	=90	=90	=90	=90	=90	=90	=90	=90	=90
8C\L	6 4	.	8C\L	.	8r	.	8r	.	2ryy	2ryy	8f\	ti-	8a\	ti-	2ryy	2ryy
16c\L	5 3	.	16c\L	.	4ee\	.	4gg\	.	.	.	8e\	-bi	8g/	-bi	.	.
16d\JJ	.	.	16d\JJ	.	.	.	.	.	.	.	.	.	.	.	.	.
16c|\LL	.	.	16c|\LL	.	.	.	.	.	.	.	4r	.	4r	.	.	.
16B-|\	.	.	16B-|\	.	.	.	.	.	.	.	.	.	.	.	.	.
16A|\	.	.	16A|\	.	16ff\LL	.	16aa\LL	.	.	.	.	.	.	.	.	.
16G|\JJ	.	.	16G|\JJ	.	16gg\JJ	.	16bb-\JJ	.	.	.	.	.	.	.	.	.
=91	=91	=91	=91	=91	=91	=91	=91	=91	=91	=91	=91	=91	=91	=91	=91	=91
8F\L	.	.	8F\L	.	[2aa\	.	[2ccc\	.	2ryy	2ryy	4a\	glo-	4cc\	glo-	2ryy	2ryy
8F\	.	.	8F\	.	.	.	.	.	.	.	.	.	.	.	.	.
8F\	.	.	8F\	.	.	.	.	.	.	.	8a\	-ri-	8cc\	-ri-	.	.
8F\J	.	.	8F\J	.	.	.	.	.	.	.	8a\	-a	8cc\	-a	.	.
=92	=92	=92	=92	=92	=92	=92	=92	=92	=92	=92	=92	=92	=92	=92	=92	=92
!LO:TX:t=P:problem:mixed beam	!	!	!LO:TX:t=P:problem:mixed beam	!	!	!	!	!	!	!	!	!	!	!	!	!
8G\L	4 9	.	8G\L	.	8aa\L]	.	8ccc\L]	.	2ryy	2ryy	4a\	Pa-	4cc\	Pa-	2ryy	2ryy
8GG/J	.	.	8GG/J	.	16gg\L	.	16bb-\L	.	.	.	.	.	.	.	.	.
.	.	.	.	.	16ff\JJ	.	16aa\JJ	.	.	.	.	.	.	.	.	.
!	!	!	!	!	!	!	!LO:LB:g=original	!	!	!	!	!	!	!	!	!
16G|\LL	3 8	.	16G|\LL	.	4gg\	.	4bb-\	.	.	.	4g\	-tri	4b-\	-tri	.	.
16F|\	.	.	16F|\	.	.	.	.	.	.	.	.	.	.	.	.	.
16E|\	.	.	16E|\	.	.	.	.	.	.	.	.	.	.	.	.	.
16D|\JJ	.	.	16D|\JJ	.	.	.	.	.	.	.	.	.	.	.	.	.
=93	=93	=93	=93	=93	=93	=93	=93	=93	=93	=93	=93	=93	=93	=93	=93	=93
8C/L	7	.	8C/L	.	4g/	.	4b-/	.	2ryy	2ryy	4g\	glo-	4b-\	glo-	2ryy	2ryy
8C/	.	.	8C/	.	.	.	.	.	.	.	.	.	.	.	.	.
8C/	.	.	8C/	.	[4gg\	.	[4bb-\	.	.	.	8g\	-ri-	8b-\	-ri-	.	.
8C/J	.	.	8C/J	.	.	.	.	.	.	.	8g\	-a	8b-\	-a	.	.
!	!	!	!	!	!LO:LB:g=original	!	!	!	!	!	!LO:LB:g=original	!	!	!	!	!
=94	=94	=94	=94	=94	=94	=94	=94	=94	=94	=94	=94	=94	=94	=94	=94	=94
!LO:TX:t=P:problem:mixed beam	!	!	!LO:TX:t=P:problem:mixed beam	!	!	!	!	!	!	!	!	!	!	!	!	!
8F\L	4 9	.	8F\L	.	8gg\L]	.	8bb-\L]	.	2ryy	2ryy	8.g\	Fi-	8.b-\	Fi-	2ryy	2ryy
8FF/J	3 8	.	8FF/J	.	16ff\L	.	16aa\L	.	.	.	.	.	.	.	.	.
.	.	.	.	.	16ee\JJ	.	16gg\JJ	.	.	.	16e\	-li-	16g/	-li-	.	.
.	.	.	.	.	8qqee/	.	8qqgg/	.	.	.	.	.	.	.	.	.
16F|\LL	.	.	16F|\LL	.	4ff\	.	4aa\	.	.	.	4f\	-o	4a\	-o	.	.
16D|\	.	.	16D|\	.	.	.	.	.	.	.	.	.	.	.	.	.
16C|\	.	.	16C|\	.	.	.	.	.	.	.	.	.	.	.	.	.
16BB-|\JJ	.	.	16BB-|\JJ	.	.	.	.	.	.	.	.	.	.	.	.	.
!LO:LB:g=original	!	!	!	!	!	!	!	!	!	!	!	!	!	!	!	!
=95	=95	=95	=95	=95	=95	=95	=95	=95	=95	=95	=95	=95	=95	=95	=95	=95
!LO:TX:t=P:problem:mixed beam	!	!	!LO:TX:t=P:problem:mixed beam	!	!	!	!	!	!	!	!	!	!LO:TX:a:i:t=5.	!	!	!
8AA/L	6	.	8AA/L	.	8r	.	8r	.	2ryy	2ryy	8r	.	0r	.	2ryy	2ryy
8A\	.	.	8A\	.	8c/L	.	8ff\	.	.	.	16f\	et	.	.	.	.
.	.	.	.	.	.	.	.	.	.	.	16f\	Spi-	.	.	.	.
8B-\	6	.	8B-\	.	8d/	.	(16gg\LL	.	.	.	(16g\LL	-ri-	.	.	.	.
.	.	.	.	.	.	.	16bb-\)	.	.	.	16b-\JJ)	.	.	.	.	.
8c\J	6	.	8c\J	.	8e/J	.	(16aa\	.	.	.	16a\	-tu-	.	.	.	.
.	.	.	.	.	.	.	16ccc\JJ)	.	.	.	16cc\	-i	.	.	.	.
=96	=96	=96	=96	=96	=96	=96	=96	=96	=96	=96	=96	=96	=96	=96	=96	=96
!LO:TX:t=P:problem:mixed beam	!	!	!LO:TX:t=P:problem:mixed beam	!	!	!	!	!	!	!	!	!	!	!	!	!
.	.	.	.	.	.	.	8qqccc/	.	.	.	.	.	.	.	.	.
8d\L	6	.	8d\L	.	4f/	.	2bb-\	.	2ryy	2ryy	4b-\	San-	.	.	2ryy	2ryy
8D/J	.	.	8D/J	.	.	.	.	.	.	.	.	.	.	.	.	.
16r	.	.	16r	.	16r	.	.	.	.	.	4b-\	-cto	.	.	.	.
16D/LL	6	.	16D/LL	.	16b-\LL	.	.	.	.	.	.	.	.	.	.	.
16C/	.	.	16C/	.	16cc\	.	.	.	.	.	.	.	.	.	.	.
16BB-/JJ	.	.	16BB-/JJ	.	16dd\JJ	.	.	.	.	.	.	.	.	.	.	.
=97	=97	=97	=97	=97	=97	=97	=97	=97	=97	=97	=97	=97	=97	=97	=97	=97
!	!	!	!	!	!LO:TX:t=P:problem:mixed beam	!	!	!	!	!	!	!	!	!	!	!
8AA/L	6	.	8AA/L	.	8cc\L	.	8r	.	2ryy	2ryy	8r	.	.	.	2ryy	2ryy
8AA/	.	.	8AA/	.	8c/	.	8ff\	.	.	.	16f\	et	.	.	.	.
.	.	.	.	.	.	.	.	.	.	.	16f\	Spi-	.	.	.	.
8BB-/	6	.	8BB-/	.	8d/	.	(16gg\LL	.	.	.	(16g\LL	-ri-	.	.	.	.
.	.	.	.	.	.	.	16bb-\)	.	.	.	16b-\JJ)	.	.	.	.	.
8C/J	6	.	8C/J	.	8e/J	.	(16aa\	.	.	.	16a\	-tu-	.	.	.	.
.	.	.	.	.	.	.	16ccc\JJ)	.	.	.	16cc\	-i	.	.	.	.
=98	=98	=98	=98	=98	=98	=98	=98	=98	=98	=98	=98	=98	=98	=98	=98	=98
8D/L	6	.	8D/L	.	8f/L	.	(2bb-\	.	2ryy	2ryy	2b-\	San-	.	.	2ryy	2ryy
8D/	.	.	8D/	.	8f/	.	.	.	.	.	.	.	.	.	.	.
8D/	.	.	8D/	.	8f/	.	.	.	.	.	.	.	.	.	.	.
8D/J	.	.	8D/J	.	8f/J	.	.	.	.	.	.	.	.	.	.	.
!	!	!	!LO:LB:g=original	!	!	!	!	!	!	!	!	!	!	!	!	!
=99	=99	=99	=99	=99	=99	=99	=99	=99	=99	=99	=99	=99	=99	=99	=99	=99
8D-X/L	6|	.	8D-X/L	.	8f/L	.	2bbn\)	.	2ryy	2ryy	2bnt\	.	2r	.	2ryy	2ryy
8D-/	.	.	8D-/	.	8f/	.	.	.	.	.	.	.	.	.	.	.
8D-/	.	.	8D-/	.	8f/	.	.	.	.	.	.	.	.	.	.	.
8D-/J	.	.	8D-/J	.	8f/J	.	.	.	.	.	.	.	.	.	.	.
=100	=100	=100	=100	=100	=100	=100	=100	=100	=100	=100	=100	=100	=100	=100	=100	=100
4C/	.	.	4C/	.	4e/	.	4ccc\	.	2ryy	2ryy	4cc\	-cto:	4r	.	2ryy	2ryy
*clefC1	*	*	*clefC1	*	*	*	*	*	*	*	*	*	*	*	*	*
!LO:TX:b:i:t=Tutti.	!	!	!LO:TX:b:t=Tutti.	!	!	!	!	!	!	!	!	!	!	!	!	!
8ccX\L	.	.	8ccX\L	.	4r	.	8ccc\L	.	.	.	4r	.	8cc\	Si-	.	.
8cc\J	.	.	8cc\J	.	.	.	8ccc\J	.	.	.	.	.	8cc\	-cut	.	.
=101	=101	=101	=101	=101	=101	=101	=101	=101	=101	=101	=101	=101	=101	=101	=101	=101
!	!	!	!	!	!LO:TX:a:i:t=2.	!	!	!	!	!	!LO:TX:a:i:t=2.	!	!	!	!	!
8a\L	.	.	8a\L	.	1r	.	8aa\L	.	2ryy	2ryy	1r	.	8a\	e-	2ryy	2ryy
8f\J	.	.	8f\J	.	.	.	8ff\	.	.	.	.	.	8f/	-rat	.	.
!LO:PB:g=original	!	!	!	!	!	!	!	!	!	!	!	!	!LO:LB:g=original	!	!	!
8cc\L	.	.	8cc\L	.	.	.	8ccc\	.	.	.	.	.	8cc\	in	.	.
8cc\J	.	.	8cc\J	.	.	.	8ccc\J	.	.	.	.	.	8cc\	prin	.	.
=102	=102	=102	=102	=102	=102	=102	=102	=102	=102	=102	=102	=102	=102	=102	=102	=102
8.a\L	.	.	8.a\L	.	.	.	8.aa\L	.	2ryy	2ryy	.	.	8.a\	ci-	2ryy	2ryy
16g\K	.	.	16g\K	.	.	.	16gg\K	.	.	.	.	.	16g/	-pi-	.	.
8f\	.	.	8f\	.	.	.	8ff\	.	.	.	.	.	8f/	-o	.	.
8g\J	.	.	8g\J	.	.	.	8gg\J	.	.	.	.	.	8g/	et	.	.
!	!	!	!	!	!	!	!	!	!	!	!LO:TX:t=P:problem:pauza 4r w roli custosa	!	!	!	!	!
!	!	!	!	!	!	!	!	!	!	!	!LO:LB:g=original	!	!	!	!	!
=103	=103	=103	=103	=103	=103	=103	=103	=103	=103	=103	=103	=103	=103	=103	=103	=103
*^	*	*	*^	*	*	*	*	*	*	*	*	*	*	*	*	*
4ryy	8a\L	.	.	4ryy	8a\L	.	4r	.	8aa\L	.	2ryy	2ryy	4r	.	8a\	nunc	2ryy	2ryy
.	8g\	.	.	.	8g\	.	.	.	8gg\	.	.	.	.	.	8g/	et	.	.
8a/L	8f\	.	.	8a/L	8f\	.	8ff\L	.	8aa\	.	.	.	8f\	Si-	(8a\L	sem-	.	.
8bn/J	8f\J	.	.	8bn/J	8f\J	.	8ff\J	.	8bbn\J	.	.	.	8f\	-cut	8bn\J)	.	.	.
*	*	*	*	*v	*v	*	*	*	*	*	*	*	*	*	*	*	*	*
=104	=104	=104	=104	=104	=104	=104	=104	=104	=104	=104	=104	=104	=104	=104	=104	=104	=104
4cc/	8e\L	.	.	8e\L	.	8ee\L	.	4ccc\	.	2ryy	2ryy	8e\	e-	4cc\	-per	2ryy	2ryy
.	8c\	.	.	8c\	.	8cc\	.	.	.	.	.	8c/	-rat	.	.	.	.
8a/L	8f\	.	.	8f\	.	8ff\	.	8aa\L	.	.	.	8f\	in	8a\	et	.	.
8bn/J	8f\J	.	.	8f\J	.	8ff\J	.	8bbn\J	.	.	.	8f\	prin-	8bn\	in	.	.
!	!	!	!	!	!	!	!	!LO:LB:g=original	!	!	!	!	!	!	!	!	!
=105	=105	=105	=105	=105	=105	=105	=105	=105	=105	=105	=105	=105	=105	=105	=105	=105	=105
8cc/	8.e\L	.	.	8.e/L	.	8.ee\L	.	8ccc\	.	2ryy	2ryy	8.e\	-ci-	8cc\	sae-	2ryy	2ryy
4g/	.	.	.	.	.	.	.	4gg\	.	.	.	.	.	4g/	.	.	.
.	16d\K	.	.	16d/K	.	16dd\K	.	.	.	.	.	16d\	-pi-	.	.	.	.
.	8c\	.	.	8c/	.	8cc\	.	.	.	.	.	8c/	-o	.	.	.	.
8a/	8d\J	.	.	8d/J	.	8cc\J	.	8aa\	.	.	.	8c/	et	16a\	-cu-	.	.
.	.	.	.	.	.	.	.	.	.	.	.	.	.	16a\	-la	.	.
=106	=106	=106	=106	=106	=106	=106	=106	=106	=106	=106	=106	=106	=106	=106	=106	=106	=106
!LO:TX:t=P:problem:mixed beam	!	!	!	!	!	!	!	!	!	!	!	!	!	!	!	!	!
4b-X/	8d\L	.	.	8d/L	.	8dd\L	.	4.bb-X\	.	2ryy	2ryy	8d\	nunc	4.b-X\	sae-	2ryy	2ryy
.	8c\	.	.	8c/	.	8cc\	.	.	.	.	.	8c/	et	.	.	.	.
8ryy	8d\	.	.	8d/	.	8dd\	.	.	.	.	.	(8d\L	sem-	.	.	.	.
*clefF4	*	*	*	*clefF4	*	*	*	*	*	*	*	*	*	*	*	*	*
8ryy	8c\J	.	.	8c\J	.	8ee\J	.	16aa\LL	.	.	.	8e\J)	.	16a\LL	-cu-	.	.
.	.	.	.	.	.	.	.	16gg\JJ	.	.	.	.	.	16g\JJ	.	.	.
*v	*v	*	*	*	*	*	*	*	*	*	*	*	*	*	*	*	*
=107	=107	=107	=107	=107	=107	=107	=107	=107	=107	=107	=107	=107	=107	=107	=107	=107
!	!	!	!LO:TX:t=P:problem:mixed beam	!	!	!	!	!	!	!	!	!	!	!	!	!
8A\L	6	.	8A\L	.	8ff\L	.	8aa\L	.	2ryy	2ryy	8f\	-per	8a\	-lo-	2ryy	2ryy
8F\	.	.	8F\	.	8ff\	.	8aa\	.	.	.	(8a\L	et	8ff\	-ru(m)	.	.
8c\	.	.	8c\	.	8ee\	.	8gg\	.	.	.	8g\J)	.	8ee\	et	.	.
8c\J	.	.	8c\J	.	8cc\J	.	8ee\J	.	.	.	8e\	-in	8cc\	in	.	.
!	!	!	!	!	!LO:LB:g=original	!	!	!	!	!	!	!	!	!	!	!
=108	=108	=108	=108	=108	=108	=108	=108	=108	=108	=108	=108	=108	=108	=108	=108	=108
8.A\L	6	.	8.A\L	.	8r	.	8r	.	2ryy	2ryy	8.f\	sae-	8.cc\	sae-	2ryy	2ryy
.	.	.	.	.	16ff\LL	.	16aa\LL	.	.	.	.	.	.	.	.	.
16G\K	.	.	16G\K	.	16gg\JJ	.	16bb-\JJ	.	.	.	16f\	-cu-	16b-\	-cu-	.	.
!	!	!	!	!	!	!	!	!	!	!	!	!	!LO:LB:g=original	!	!	!
8F\	4	.	8F\	.	8aa\L	.	8ccc\L	.	.	.	4f\	-la	8a\L	-la	.	.
.	5	.	.	.	.	.	.	.	.	.	.	.	.	.	.	.
8G\J	7	.	8G\J	.	8gg\J	.	8bb-\J	.	.	.	.	.	8b-\J	.	.	.
!LO:LB:g=original	!	!	!LO:LB:g=original	!	!	!	!	!	!	!	!	!	!	!	!	!
=109	=109	=109	=109	=109	=109	=109	=109	=109	=109	=109	=109	=109	=109	=109	=109	=109
8A\L	6	.	8A\L	.	8ff\L	.	8aa\L	.	2ryy	2ryy	8f\	sae-	4.cc\	sae-	2ryy	2ryy
8G\	.	.	8G\	.	8gg\J	.	8bb-\J	.	.	.	8e\	cu-	.	.	.	.
8A\	.	.	8A\	.	4ff\	.	4aa\	.	.	.	4f\	-lo-	.	.	.	.
8Bn\J	.	.	8Bn\J	.	.	.	.	.	.	.	.	.	8dd\	-cu-	.	.
!	!	!	!	!	!	!	!	!	!	!	!LO:LB:g=original	!	!	!	!	!
=110	=110	=110	=110	=110	=110	=110	=110	=110	=110	=110	=110	=110	=110	=110	=110	=110
4c\	6 4	.	4c\	.	(8ff\L	.	(8aa\L	.	2ryy	2ryy	(8f\	-rum	8a\	-lo-	2ryy	2ryy
.	5 3	.	.	.	8ee\J)	.	8gg\J)	.	.	.	8e\)	.	8g/	-rum	.	.
!LO:TX:b:t=T&colon; S&colon;	!	!	!LO:TX:b:i:t=T&colon; S&colon;	!	!	!	!	!	!	!	!	!	!	!	!	!
4C/	.	.	4C/	.	8ee\L	.	8ccc\L	.	.	.	(8e\L	a-	4cc\	a-	.	.
.	.	.	.	.	8ff#X\J	.	8ccc\J	.	.	.	8f#X\J)	.	.	.	.	.
=111	=111	=111	=111	=111	=111	=111	=111	=111	=111	=111	=111	=111	=111	=111	=111	=111
!	!	!	!	!	!LO:TX:t=P:problem:mixed beam	!	!	!	!	!	!	!	!	!	!	!
2C/	.	.	2C/	.	8gg\L	.	(16bbn\LL	.	2ryy	2ryy	4g\	-men	4bn\	.	2ryy	2ryy
.	.	.	.	.	.	.	16ddd\J)	.	.	.	.	.	.	.	.	.
.	.	.	.	.	8g/J	.	8gg\J|	.	.	.	.	.	.	.	.	.
*	*	*	*	*	*	*	*	*	*	*	*	*ij	*	*	*	*
.	.	.	.	.	8dd\L	.	8bb-X\L	.	.	.	(8d\L	a-	4b-X\	.	.	.
.	.	.	.	.	8ee\J	.	8bb-\J	.	.	.	8e\J)	.	.	.	.	.
=112	=112	=112	=112	=112	=112	=112	=112	=112	=112	=112	=112	=112	=112	=112	=112	=112
!	!	!	!	!	!LO:TX:t=P:problem:mixed beam	!	!	!	!	!	!	!	!	!	!	!
4C/	.	.	4C/	.	8ffn\L	.	(16aa\LL	.	2ryy	2ryy	4fn\	-men	4a\	-men	2ryy	2ryy
.	.	.	.	.	.	.	16ccc\J)	.	.	.	.	.	.	.	.	.
.	.	.	.	.	8f/J	.	8ff|\J	.	.	.	.	.	.	.	.	.
*	*	*	*	*	*	*	*	*	*	*	*	*Xij	*	*ij	*	*
!	!	!	!LO:SIC:v:s=8Bn\L	!	!	!	!	!	!	!	!	!	!	!	!	!
8Bn\L	-7r	.	8B#X\L	.	8ff\L	.	8aa-X\L	.	.	.	8a-X\	a-	8ff\	a-	.	.
!	!	!	!LO:SIC:v:s=8Bn\J	!	!	!	!	!	!	!	!	!	!	!	!	!
8B\J	.	.	8B#\J	.	8ff\J	.	8aa-\J	.	.	.	8a-\	-men	8ff\	-men	.	.
*	*	*	*	*	*	*	*	*	*	*	*	*	*	*Xij	*	*
=113	=113	=113	=113	=113	=113	=113	=113	=113	=113	=113	=113	=113	=113	=113	=113	=113
8c\L	n	.	8c\L	.	8ee\	.	8gg\L	.	2ryy	2ryy	8g\L	a-	8ee\	a-	2ryy	2ryy
8d\	6	.	8d\	.	4ff\	.	16ff\L	.	.	.	16f\L	.	4ff\	.	.	.
.	.	.	.	.	.	.	16gg\JJ	.	.	.	16g\JJ	.	.	.	.	.
8c\	4	.	8c\	.	.	.	4ggT\	.	.	.	4gT\	.	.	.	.	.
8C\J	3	.	8C\J	.	8ee\	.	.	.	.	.	.	.	8ee\	.	.	.
=114	=114	=114	=114	=114	=114	=114	=114	=114	=114	=114	=114	=114	=114	=114	=114	=114
4F\	n	.	4F\	.	4ff\	.	4ff\	.	2ryy	2ryy	4an\	-men	4ff\	-men	2ryy	2ryy
8E\L	6	.	8E\L	.	8gg\L	.	8ccc\L	.	.	.	8g\L	a-	4cc\	a-	.	.
8F#X\J	5	.	8F#X\J	.	8aa\J	.	8ccc\J	.	.	.	8a\J	.	.	.	.	.
=115	=115	=115	=115	=115	=115	=115	=115	=115	=115	=115	=115	=115	=115	=115	=115	=115
!LO:TX:t=P:problem:mixed beam	!	!	!LO:TX:t=P:problem:mixed beam	!	!	!	!	!	!	!	!	!	!	!	!	!
8G\L	n	.	8G\L	.	4dd\	.	(16bbn\LL	.	2ryy	2ryy	4d\	-men	4bn\	.	2ryy	2ryy
.	.	.	.	.	.	.	16ddd\J)	.	.	.	.	.	.	.	.	.
8GG/J	.	.	8GG/J	.	.	.	8gg|\J	.	.	.	.	.	.	.	.	.
*	*	*	*	*	*	*	*	*	*	*	*	*ij	*	*	*	*
!	!	!	!	!	!	!	!LO:LB:g=original	!	!	!	!	!	!	!	!	!
8D\L	-6	.	8D\L	.	8ff\L	.	8bb-X\L	.	.	.	8f\L	a-	4b-X\	.	.	.
8E\J	5	.	8E\J	.	8gg\J	.	8bb-\J	.	.	.	8g\J	.	.	.	.	.
=116	=116	=116	=116	=116	=116	=116	=116	=116	=116	=116	=116	=116	=116	=116	=116	=116
!LO:TX:t=P:problem:mixed beam	!	!	!LO:TX:t=P:problem:mixed beam	!	!	!	!	!	!	!	!	!	!	!	!	!
8Fn\L	.	.	8Fn\L	.	4cc\	.	(16aa\LL	.	2ryy	2ryy	4c/	-men	4a\	-men	2ryy	2ryy
.	.	.	.	.	.	.	16ccc\J)	.	.	.	.	.	.	.	.	.
8FF/J	.	.	8FF/J	.	.	.	8ff|\J	.	.	.	.	.	.	.	.	.
*	*	*	*	*	*	*	*	*	*	*	*	*	*	*ij	*	*
8BBn/L	-7r 5	.	8BBn/L	.	8ff\L	.	8aa-X\L	.	.	.	8a-X\	a-	8ff\	a-	.	.
8BB/J	.	.	8BB/J	.	8ff\J	.	8aa-\J	.	.	.	8a-\	-men	8ff\	-men	.	.
*	*	*	*	*	*	*	*	*	*	*	*	*Xij	*	*Xij	*	*
=117	=117	=117	=117	=117	=117	=117	=117	=117	=117	=117	=117	=117	=117	=117	=117	=117
8C/L	n	.	8C/L	.	8ee\	.	8gg\L	.	2ryy	2ryy	8g\L	a-	8ee\	a-	2ryy	2ryy
8D-X/	6	.	8D-X/	.	4ff\	.	16ff\L	.	.	.	16f\L	.	4ff\	.	.	.
.	.	.	.	.	.	.	16gg\JJ	.	.	.	16g\JJ	.	.	.	.	.
8C/	4	.	8C/	.	.	.	4ggT\	.	.	.	4gT\	.	.	.	.	.
8CC/J	3	.	8CC/J	.	8ee\	.	.	.	.	.	.	.	8ee\	.	.	.
=118	=118	=118	=118	=118	=118	=118	=118	=118	=118	=118	=118	=118	=118	=118	=118	=118
4FF/	n	.	4FF/	.	4ff\	.	4ff\	.	2ryy	2ryy	4an\	-men.	4ff\	-men.	2ryy	2ryy
4r	.	.	4r	.	4r	.	4r	.	.	.	4r	.	4r	.	.	.
==	==	==	==	==	==	==	==	==	==	==	==	==	==	==	==	==
*-	*-	*-	*-	*-	*-	*-	*-	*-	*-	*-	*-	*-	*-	*-	*-	*-
!!!system-decoration: [(g1)][(g2)][(g3)][(g4)]
!!!RDF**kern: > = above
!!!RDF**kern: < = below
!!!RDF**dynam: p = p:
!!!RDF**dynam: f = f:
!!!RDF**kern: | = vertical stroke
!!!ENC: Marta Opryszak
!!!END: 2022-04-08
!!!EED: Andrzej Borzym
!!!EEV: 2022-05-10
